; generated by PrusaSlicer 2.9.0 on 2025-02-18 at 19:42:30 UTC


;
;
; 

; external perimeters extrusion width = 0.45mm
; perimeters extrusion width = 0.45mm
; infill extrusion width = 0.45mm
; solid infill extrusion width = 0.45mm
; top infill extrusion width = 0.40mm
; first layer extrusion width = 0.42mm

M73 P0 R82
M73 Q0 S83
M201 X1000 Y1000 Z200 E5000 ; sets maximum accelerations, mm/sec^2
M203 X200 Y200 Z12 E120 ; sets maximum feedrates, mm / sec
M204 S1250 T1250 ; sets acceleration (S) and retract acceleration (R), mm/sec^2
M205 X8.00 Y8.00 Z0.40 E4.50 ; sets the jerk limits, mm/sec
M205 S0 T0 ; sets the minimum extruding and travel feed rate, mm/sec

; printing object kayboard_case_ergogen_v2_test_print.stl id:0 copy 0
; stop printing object kayboard_case_ergogen_v2_test_print.stl id:0 copy 0

;TYPE:Custom
M862.3 P "MK3S" ; printer model check
M862.1 P0.4 ; nozzle diameter check
M115 U3.14.1 ; tell printer latest fw version
G90 ; use absolute coordinates
M83 ; extruder relative mode
M104 S215 ; set extruder temp
M140 S60 ; set bed temp
M190 S60 ; wait for bed temp
M109 S215 ; wait for extruder temp
G28 W ; home all without mesh bed level
G80 X52.9479 Y36.2618 W154.742 H137.476 ; mesh bed levelling

G1 Z0.2 F720
G1 Y-3 F1000 ; go outside print area
G92 E0
G1 X60 E9 F1000 ; intro line
G1 X100 E12.5 F1000 ; intro line

G92 E0
M221 S95

; Don't change E values below. Excessive value can damage the printer.
M907 E430 ; set extruder motor current
G21 ; set units to millimeters
G90 ; use absolute coordinates
M83 ; use relative distances for extrusion

M900 K0.05 ; Filament gcode LA 1.5
M900 K30 ; Filament gcode LA 1.0




M107
;LAYER_CHANGE
;Z:0.2
;HEIGHT:0.2
G1 E-.8 F2100
M73 Q0 S82
G1 Z.6 F720
G1 X55.239 Y39.86 F10800
G1 Z.2 F720
G1 E.8 F2100
M204 S800
;TYPE:Skirt/Brim
;WIDTH:0.42
G1 F1200
G1 X56.215 Y38.782 E.0456
G1 X57.357 Y37.882 E.04559
G1 X58.97 Y37.044 E.05699
G1 X60.363 Y36.628 E.04558
G1 X61.441 Y36.472 E.03415
G1 X62.74 Y36.472 E.04073
G1 X200.312 Y60.044 E4.37633
G1 X201.962 Y60.511 E.05377
G1 X202.99 Y60.991 E.03557
G1 X204.249 Y61.832 E.04747
G1 X205.589 Y63.171 E.0594
G1 X206.43 Y64.43 E.04747
G1 X206.909 Y65.458 E.03556
G1 X207.333 Y66.912 E.04749
G1 X207.501 Y68.543 E.05141
G1 X207.501 Y146.644 E2.4488
G1 X207.358 Y148.15 E.04743
G1 X206.997 Y149.499 E.04379
G1 X206.424 Y150.773 E.0438
G1 X205.654 Y151.939 E.04381
G1 X204.96 Y152.722 E.03281
G1 X203.897 Y153.629 E.04381
G1 X202.702 Y154.352 E.04379
G1 X201.407 Y154.875 E.04379
G1 X154.919 Y171.12 E1.54403
G1 X153.905 Y171.41 E.03307
G1 X153.042 Y171.557 E.02745
G1 X135.22 Y173.545 E.56226
G1 X133.586 Y173.444 E.05133
G1 X60.496 Y162.376 E2.31781
G1 X59.388 Y162.129 E.03559
G1 X58.101 Y161.639 E.04318
G1 X56.625 Y160.75 E.05402
G1 X55.837 Y160.085 E.03233
G1 X54.918 Y159.06 E.04316
G1 X54.014 Y157.593 E.05403
G1 X53.618 Y156.641 E.03233
G1 X53.271 Y155.308 E.04319
G1 X53.136 Y153.824 E.04672
G1 X53.465 Y44.858 E3.41657
G1 X53.616 Y43.478 E.04353
G1 X53.889 Y42.424 E.03414
G1 X54.457 Y41.085 E.0456
G1 X55.207 Y39.911 E.04368
M204 S1000
;WIPE_START
G1 F8640
G1 X55.239 Y39.86 E-.0139
G1 X56.215 Y38.782 E-.33578
G1 X57.357 Y37.882 E-.33574
G1 X57.797 Y37.653 E-.11458
;WIPE_END
G1 Z.6 F720
; printing object kayboard_case_ergogen_v2_test_print.stl id:0 copy 0
G1 X143.887 Y108.212 F10800
G1 Z.2 F720
M73 P0 R81
G1 E.8 F2100
M204 S800
;TYPE:External perimeter
;WIDTH:0.497733
G1 F1200
G1 X143.849 Y108.233 E.00164
;WIDTH:0.458866
G1 X143.784 Y108.268 E.00255
;WIDTH:0.419999
G1 X125.841 Y108.268 E.56259
;WIDTH:0.458866
G1 X125.775 Y108.233 E.00258
;WIDTH:0.497732
G1 X125.71 Y108.197 E.00281
;WIDTH:0.536599
G1 X125.644 Y108.161 E.00309
;WIDTH:0.575465
G1 X125.579 Y108.126 E.00327
G1 X125.577 Y108.08 E.00204
;WIDTH:0.57146
G1 X125.577 Y104.137 E.17329
G1 X125.596 Y103.88 E.01133
;WIDTH:0.533595
G1 X125.615 Y103.622 E.01055
;WIDTH:0.49573
G1 X125.633 Y103.365 E.0097
;WIDTH:0.457865
G1 X125.652 Y103.108 E.00889
;WIDTH:0.458866
G1 X125.633 Y102.874 E.00812
;WIDTH:0.497732
G1 X125.614 Y102.64 E.00888
;WIDTH:0.536598
G1 X125.594 Y102.406 E.00964
;WIDTH:0.575464
G1 X125.577 Y102.08 E.01446
;WIDTH:0.57146
G1 X125.577 Y91.137 E.48093
G1 X125.643 Y91.09 E.00356
;WIDTH:0.533595
G1 X125.709 Y91.042 E.00333
;WIDTH:0.49573
G1 X125.775 Y90.995 E.00305
;WIDTH:0.457865
G1 X125.841 Y90.948 E.0028
;WIDTH:0.419999
G1 X143.784 Y90.948 E.56259
;WIDTH:0.457865
G1 X143.85 Y90.995 E.0028
;WIDTH:0.495731
G1 X143.916 Y91.042 E.00305
;WIDTH:0.533597
G1 X143.982 Y91.09 E.00333
;WIDTH:0.571462
G1 X144.048 Y91.137 E.00356
G1 X144.048 Y103.08 E.52488
G1 X144.029 Y103.337 E.01133
;WIDTH:0.533597
G1 X144.01 Y103.594 E.01051
;WIDTH:0.495731
G1 X143.991 Y103.851 E.0097
;WIDTH:0.457865
G1 X143.972 Y104.108 E.00889
G1 X143.991 Y104.365 E.00889
;WIDTH:0.495731
G1 X144.01 Y104.622 E.0097
;WIDTH:0.533597
G1 X144.029 Y104.88 E.01055
;WIDTH:0.571462
G1 X144.048 Y105.137 E.01133
G1 X144.048 Y108.08 E.12934
;WIDTH:0.575466
G1 X144.046 Y108.126 E.00204
G1 X143.981 Y108.161 E.00327
;WIDTH:0.5366
G1 X143.94 Y108.183 E.00191
M204 S1000
;WIPE_START
G1 F8640
G1 X143.887 Y108.212 E-.01395
G1 X143.849 Y108.233 E-.01003
G1 X143.784 Y108.268 E-.01705
G1 X140.497 Y108.268 E-.75897
;WIPE_END
G1 Z.6 F720
G1 X124.887 Y121.212 F10800
G1 Z.2 F720
G1 E.8 F2100
M204 S800
;WIDTH:0.497732
G1 F1200
G1 X124.849 Y121.233 E.00164
;WIDTH:0.458866
G1 X124.784 Y121.268 E.00255
;WIDTH:0.419999
G1 X106.841 Y121.268 E.56259
G1 X106.652 Y121.08 E.00836
G1 X106.652 Y120.108 E.03048
;WIDTH:0.458866
G1 X106.633 Y119.874 E.00812
;WIDTH:0.497732
G1 X106.614 Y119.64 E.00888
;WIDTH:0.536598
G1 X106.594 Y119.406 E.00964
;WIDTH:0.575464
G1 X106.577 Y119.08 E.01446
;WIDTH:0.57146
G1 X106.577 Y104.137 E.65672
G1 X106.643 Y104.09 E.00356
;WIDTH:0.533595
G1 X106.709 Y104.042 E.00333
;WIDTH:0.49573
G1 X106.775 Y103.995 E.00305
;WIDTH:0.457865
G1 X106.841 Y103.948 E.0028
;WIDTH:0.419999
G1 X124.784 Y103.948 E.56259
;WIDTH:0.457865
G1 X124.85 Y103.995 E.0028
;WIDTH:0.49573
G1 X124.916 Y104.042 E.00305
;WIDTH:0.533595
G1 X124.982 Y104.09 E.00333
;WIDTH:0.57146
G1 X125.048 Y104.137 E.00356
G1 X125.048 Y108.08 E.17329
G1 X125.029 Y108.337 E.01133
;WIDTH:0.533595
G1 X125.01 Y108.594 E.01051
;WIDTH:0.49573
G1 X124.991 Y108.851 E.0097
;WIDTH:0.457865
G1 X124.972 Y109.108 E.00889
G1 X124.991 Y109.365 E.00889
;WIDTH:0.49573
G1 X125.01 Y109.622 E.0097
;WIDTH:0.533595
G1 X125.029 Y109.88 E.01055
;WIDTH:0.57146
G1 X125.048 Y110.137 E.01133
G1 X125.048 Y121.08 E.48093
;WIDTH:0.575464
G1 X125.046 Y121.126 E.00204
G1 X124.981 Y121.161 E.00327
;WIDTH:0.536598
G1 X124.94 Y121.183 E.00191
M204 S1000
;WIPE_START
G1 F8640
G1 X124.887 Y121.212 E-.01395
G1 X124.849 Y121.233 E-.01003
G1 X124.784 Y121.268 E-.01705
G1 X121.497 Y121.268 E-.75897
;WIPE_END
G1 Z.6 F720
G1 X105.878 Y102.042 F10800
G1 Z.2 F720
G1 E.8 F2100
M204 S800
;WIDTH:0.419999
G1 F1200
G1 X105.972 Y102.137 E.00419
G1 X105.972 Y103.108 E.03044
;WIDTH:0.457865
G1 X105.991 Y103.365 E.00889
;WIDTH:0.49573
G1 X106.01 Y103.622 E.0097
;WIDTH:0.533595
G1 X106.029 Y103.88 E.01055
;WIDTH:0.57146
G1 X106.048 Y104.137 E.01133
G1 X106.048 Y119.08 E.65672
;WIDTH:0.575464
G1 X106.046 Y119.126 E.00204
G1 X105.981 Y119.161 E.00327
;WIDTH:0.536598
G1 X105.915 Y119.197 E.00309
;WIDTH:0.497732
G1 X105.849 Y119.233 E.00284
;WIDTH:0.458866
G1 X105.784 Y119.268 E.00255
;WIDTH:0.419999
G1 X87.841 Y119.268 E.56259
G1 X87.767 Y119.253 E.00237
G1 X87.652 Y119.08 E.00651
G1 X87.652 Y102.136 E.53127
G1 X87.682 Y102.035 E.0033
G1 X87.841 Y101.948 E.00568
G1 X105.784 Y101.948 E.56259
G1 X105.836 Y102 E.00231
M204 S1000
;WIPE_START
G1 F8640
G1 X105.878 Y102.042 E-.01371
G1 X105.972 Y102.137 E-.03086
G1 X105.972 Y103.108 E-.22421
G1 X105.991 Y103.365 E-.0595
G1 X106.01 Y103.622 E-.0595
G1 X106.029 Y103.88 E-.05973
G1 X106.048 Y104.137 E-.0595
G1 X106.048 Y105.406 E-.29299
;WIPE_END
G1 Z.6 F720
G1 X105.878 Y121.042 F10800
G1 Z.2 F720
G1 E.8 F2100
M204 S800
G1 F1200
G1 X105.972 Y121.137 E.00419
G1 X105.972 Y122.108 E.03044
;WIDTH:0.457865
G1 X105.991 Y122.365 E.00889
;WIDTH:0.49573
G1 X106.01 Y122.622 E.0097
;WIDTH:0.533595
G1 X106.029 Y122.88 E.01055
;WIDTH:0.57146
G1 X106.048 Y123.137 E.01133
G1 X106.048 Y138.08 E.65672
;WIDTH:0.575464
G1 X106.046 Y138.126 E.00204
G1 X105.981 Y138.161 E.00327
;WIDTH:0.536598
G1 X105.915 Y138.197 E.00309
;WIDTH:0.497732
G1 X105.849 Y138.233 E.00284
;WIDTH:0.458866
G1 X105.784 Y138.268 E.00255
;WIDTH:0.419999
G1 X87.841 Y138.268 E.56259
G1 X87.767 Y138.253 E.00237
G1 X87.652 Y138.08 E.00651
G1 X87.652 Y121.137 E.53123
G1 X87.802 Y120.952 E.00747
G1 X105.784 Y120.948 E.56381
G1 X105.836 Y121 E.00231
M73 P1 R81
M73 Q1 S82
M204 S1000
;WIPE_START
G1 F8640
G1 X105.878 Y121.042 E-.01371
G1 X105.972 Y121.137 E-.03086
G1 X105.972 Y122.108 E-.22421
G1 X105.991 Y122.365 E-.0595
G1 X106.01 Y122.622 E-.0595
G1 X106.029 Y122.88 E-.05973
G1 X106.048 Y123.137 E-.0595
G1 X106.048 Y124.406 E-.29299
;WIPE_END
G1 Z.6 F720
G1 X105.878 Y140.042 F10800
G1 Z.2 F720
G1 E.8 F2100
M204 S800
G1 F1200
G1 X105.972 Y140.137 E.00419
G1 X105.972 Y140.172 E.0011
G1 X105.972 Y141.108 E.02935
;WIDTH:0.457865
G1 X105.991 Y141.365 E.00889
;WIDTH:0.49573
G1 X106.01 Y141.622 E.0097
;WIDTH:0.533595
G1 X106.029 Y141.88 E.01055
;WIDTH:0.57146
G1 X106.048 Y142.137 E.01133
G1 X106.048 Y157.08 E.65672
;WIDTH:0.575464
G1 X106.046 Y157.126 E.00204
G1 X105.981 Y157.161 E.00327
;WIDTH:0.536598
G1 X105.915 Y157.197 E.00309
;WIDTH:0.497732
G1 X105.849 Y157.233 E.00284
;WIDTH:0.458866
G1 X105.784 Y157.268 E.00255
;WIDTH:0.419999
G1 X87.841 Y157.268 E.56259
G1 X87.728 Y157.23 E.00374
G1 X87.652 Y157.08 E.00527
G1 X87.652 Y140.137 E.53123
G1 X87.802 Y139.952 E.00747
G1 X87.841 Y139.948 E.00123
G1 X105.784 Y139.948 E.56259
G1 X105.836 Y140 E.00231
M204 S1000
;WIPE_START
G1 F8640
G1 X105.878 Y140.042 E-.01371
G1 X105.972 Y140.137 E-.03086
G1 X105.972 Y140.172 E-.00808
G1 X105.972 Y141.108 E-.21613
G1 X105.991 Y141.365 E-.0595
G1 X106.01 Y141.622 E-.0595
G1 X106.029 Y141.88 E-.05973
G1 X106.048 Y142.137 E-.0595
G1 X106.048 Y143.406 E-.29299
;WIPE_END
G1 Z.6 F720
G1 X124.887 Y159.212 F10800
G1 Z.2 F720
G1 E.8 F2100
M204 S800
;WIDTH:0.497732
G1 F1200
G1 X124.849 Y159.233 E.00164
;WIDTH:0.458866
G1 X124.784 Y159.268 E.00255
;WIDTH:0.419999
G1 X106.841 Y159.268 E.56259
G1 X106.706 Y159.211 E.00459
G1 X106.652 Y159.08 E.00444
G1 X106.652 Y158.137 E.02957
;WIDTH:0.458866
G1 X106.633 Y157.895 E.0084
;WIDTH:0.497732
G1 X106.614 Y157.654 E.00914
;WIDTH:0.536598
G1 X106.594 Y157.413 E.00993
;WIDTH:0.575464
G1 X106.577 Y157.08 E.01476
;WIDTH:0.57146
G1 X106.577 Y142.137 E.65672
G1 X106.641 Y142.09 E.00349
;WIDTH:0.533595
G1 X106.706 Y142.042 E.0033
;WIDTH:0.49573
G1 X106.771 Y141.995 E.00302
;WIDTH:0.457865
G1 X106.836 Y141.948 E.00277
;WIDTH:0.419999
G1 X124.784 Y141.948 E.56275
;WIDTH:0.457865
G1 X124.85 Y141.995 E.0028
;WIDTH:0.49573
G1 X124.916 Y142.042 E.00305
;WIDTH:0.533595
G1 X124.982 Y142.09 E.00333
;WIDTH:0.57146
G1 X125.048 Y142.137 E.00356
G1 X125.048 Y146.08 E.17329
G1 X125.029 Y146.337 E.01133
;WIDTH:0.533595
G1 X125.01 Y146.594 E.01051
;WIDTH:0.49573
G1 X124.991 Y146.851 E.0097
;WIDTH:0.457865
G1 X124.972 Y147.108 E.00889
G1 X124.991 Y147.365 E.00889
;WIDTH:0.49573
G1 X125.01 Y147.622 E.0097
;WIDTH:0.533595
G1 X125.029 Y147.88 E.01055
;WIDTH:0.57146
G1 X125.048 Y148.137 E.01133
G1 X125.048 Y159.08 E.48093
;WIDTH:0.575464
G1 X125.046 Y159.126 E.00204
G1 X124.981 Y159.161 E.00327
;WIDTH:0.536598
G1 X124.94 Y159.183 E.00191
M204 S1000
;WIPE_START
G1 F8640
G1 X124.887 Y159.212 E-.01395
G1 X124.849 Y159.233 E-.01003
G1 X124.784 Y159.268 E-.01705
G1 X121.497 Y159.268 E-.75897
;WIPE_END
G1 Z.6 F720
G1 X143.887 Y146.212 F10800
G1 Z.2 F720
G1 E.8 F2100
M204 S800
;WIDTH:0.497733
G1 F1200
G1 X143.849 Y146.233 E.00164
;WIDTH:0.458866
G1 X143.784 Y146.268 E.00255
;WIDTH:0.419999
G1 X125.841 Y146.268 E.56259
;WIDTH:0.458866
G1 X125.775 Y146.233 E.00258
;WIDTH:0.497732
G1 X125.71 Y146.197 E.00281
;WIDTH:0.536599
G1 X125.644 Y146.161 E.00309
;WIDTH:0.575465
G1 X125.579 Y146.126 E.00327
G1 X125.577 Y146.08 E.00204
;WIDTH:0.57146
G1 X125.577 Y142.137 E.17329
G1 X125.596 Y141.88 E.01133
;WIDTH:0.533595
G1 X125.615 Y141.622 E.01055
;WIDTH:0.49573
G1 X125.633 Y141.365 E.0097
;WIDTH:0.457865
G1 X125.652 Y141.108 E.00889
;WIDTH:0.458866
G1 X125.633 Y140.874 E.00812
;WIDTH:0.497732
G1 X125.614 Y140.64 E.00888
;WIDTH:0.536598
G1 X125.594 Y140.406 E.00964
;WIDTH:0.575464
G1 X125.575 Y140.172 E.0104
G1 X125.577 Y140.08 E.00407
;WIDTH:0.57146
G1 X125.577 Y129.137 E.48093
G1 X125.643 Y129.09 E.00356
;WIDTH:0.533595
G1 X125.709 Y129.042 E.00333
;WIDTH:0.49573
G1 X125.775 Y128.995 E.00305
;WIDTH:0.457865
G1 X125.841 Y128.948 E.0028
;WIDTH:0.419999
G1 X143.784 Y128.948 E.56259
;WIDTH:0.457865
G1 X143.85 Y128.995 E.0028
;WIDTH:0.495731
G1 X143.916 Y129.042 E.00305
;WIDTH:0.533597
G1 X143.982 Y129.09 E.00333
;WIDTH:0.571462
G1 X144.048 Y129.137 E.00356
G1 X144.048 Y141.08 E.52488
G1 X144.029 Y141.337 E.01133
;WIDTH:0.533597
G1 X144.01 Y141.594 E.01051
;WIDTH:0.495731
G1 X143.991 Y141.851 E.0097
;WIDTH:0.457865
G1 X143.972 Y142.108 E.00889
G1 X143.991 Y142.365 E.00889
;WIDTH:0.495731
G1 X144.01 Y142.622 E.0097
;WIDTH:0.533597
G1 X144.029 Y142.88 E.01055
;WIDTH:0.571462
G1 X144.048 Y143.137 E.01133
G1 X144.048 Y146.08 E.12934
;WIDTH:0.575466
G1 X144.046 Y146.126 E.00204
G1 X143.981 Y146.161 E.00327
;WIDTH:0.5366
G1 X143.94 Y146.183 E.00191
M204 S1000
;WIPE_START
G1 F8640
G1 X143.887 Y146.212 E-.01395
G1 X143.849 Y146.233 E-.01003
G1 X143.784 Y146.268 E-.01705
G1 X140.497 Y146.268 E-.75897
;WIPE_END
G1 Z.6 F720
G1 X124.887 Y140.212 F10800
G1 Z.2 F720
G1 E.8 F2100
M204 S800
;WIDTH:0.497732
G1 F1200
G1 X124.849 Y140.233 E.00164
;WIDTH:0.458866
G1 X124.784 Y140.268 E.00255
;WIDTH:0.419999
G1 X106.841 Y140.268 E.56259
G1 X106.652 Y140.08 E.00836
G1 X106.652 Y139.108 E.03048
;WIDTH:0.458866
G1 X106.633 Y138.874 E.00812
;WIDTH:0.497732
G1 X106.614 Y138.64 E.00888
;WIDTH:0.536598
G1 X106.594 Y138.406 E.00964
;WIDTH:0.575464
G1 X106.577 Y138.08 E.01446
;WIDTH:0.57146
G1 X106.577 Y123.137 E.65672
G1 X106.643 Y123.09 E.00356
;WIDTH:0.533595
G1 X106.709 Y123.042 E.00333
;WIDTH:0.49573
G1 X106.775 Y122.995 E.00305
;WIDTH:0.457865
G1 X106.841 Y122.948 E.0028
;WIDTH:0.419999
G1 X124.784 Y122.948 E.56259
;WIDTH:0.457865
G1 X124.85 Y122.995 E.0028
M73 Q1 S81
;WIDTH:0.49573
G1 X124.916 Y123.042 E.00305
;WIDTH:0.533595
G1 X124.982 Y123.09 E.00333
;WIDTH:0.57146
G1 X125.048 Y123.137 E.00356
G1 X125.048 Y127.08 E.17329
G1 X125.029 Y127.337 E.01133
;WIDTH:0.533595
G1 X125.01 Y127.594 E.01051
;WIDTH:0.49573
G1 X124.991 Y127.851 E.0097
;WIDTH:0.457865
G1 X124.972 Y128.108 E.00889
G1 X124.991 Y128.365 E.00889
;WIDTH:0.49573
G1 X125.01 Y128.622 E.0097
;WIDTH:0.533595
G1 X125.029 Y128.88 E.01055
;WIDTH:0.57146
G1 X125.048 Y129.137 E.01133
G1 X125.048 Y140.08 E.48093
;WIDTH:0.575464
G1 X125.046 Y140.126 E.00204
G1 X124.981 Y140.161 E.00327
;WIDTH:0.536598
G1 X124.94 Y140.183 E.00191
M204 S1000
;WIPE_START
G1 F8640
G1 X124.887 Y140.212 E-.01395
G1 X124.849 Y140.233 E-.01003
G1 X124.784 Y140.268 E-.01705
G1 X121.497 Y140.268 E-.75897
;WIPE_END
G1 Z.6 F720
G1 X143.886 Y110.021 F10800
G1 Z.2 F720
G1 E.8 F2100
M204 S800
;WIDTH:0.495731
G1 F1200
G1 X143.916 Y110.042 E.00138
;WIDTH:0.533597
G1 X143.982 Y110.09 E.00333
;WIDTH:0.571462
G1 X144.048 Y110.137 E.00356
G1 X144.048 Y122.08 E.52488
G1 X144.029 Y122.337 E.01133
;WIDTH:0.533597
G1 X144.01 Y122.594 E.01051
;WIDTH:0.495731
G1 X143.991 Y122.851 E.0097
;WIDTH:0.457865
G1 X143.972 Y123.108 E.00889
G1 X143.991 Y123.365 E.00889
;WIDTH:0.495731
G1 X144.01 Y123.622 E.0097
;WIDTH:0.533597
G1 X144.029 Y123.88 E.01055
;WIDTH:0.571462
G1 X144.048 Y124.137 E.01133
G1 X144.048 Y127.08 E.12934
;WIDTH:0.575466
G1 X144.046 Y127.126 E.00204
G1 X143.981 Y127.161 E.00327
;WIDTH:0.5366
G1 X143.915 Y127.197 E.00309
;WIDTH:0.497733
G1 X143.849 Y127.233 E.00284
;WIDTH:0.458866
G1 X143.784 Y127.268 E.00255
;WIDTH:0.419999
G1 X125.841 Y127.268 E.56259
;WIDTH:0.458866
G1 X125.775 Y127.233 E.00258
;WIDTH:0.497732
G1 X125.71 Y127.197 E.00281
;WIDTH:0.536599
