; generated by PrusaSlicer 2.9.0 on 2025-02-18 at 19:09:53 UTC


;
;
; 

; external perimeters extrusion width = 0.45mm
; perimeters extrusion width = 0.45mm
; infill extrusion width = 0.45mm
; solid infill extrusion width = 0.45mm
; top infill extrusion width = 0.40mm
; first layer extrusion width = 0.42mm

M73 P0 R85
M73 Q0 S86
M201 X1000 Y1000 Z200 E5000 ; sets maximum accelerations, mm/sec^2
M203 X200 Y200 Z12 E120 ; sets maximum feedrates, mm / sec
M204 S1250 T1250 ; sets acceleration (S) and retract acceleration (R), mm/sec^2
M205 X8.00 Y8.00 Z0.40 E4.50 ; sets the jerk limits, mm/sec
M205 S0 T0 ; sets the minimum extruding and travel feed rate, mm/sec

; printing object kayboard_case_ergogen_v2_test_print.stl id:0 copy 0
; stop printing object kayboard_case_ergogen_v2_test_print.stl id:0 copy 0

;TYPE:Custom
M862.3 P "MK3S" ; printer model check
M862.1 P0.4 ; nozzle diameter check
M115 U3.14.1 ; tell printer latest fw version
G90 ; use absolute coordinates
M83 ; extruder relative mode
M104 S215 ; set extruder temp
M140 S60 ; set bed temp
M190 S60 ; wait for bed temp
M109 S215 ; wait for extruder temp
G28 W ; home all without mesh bed level
G80 X180.781 Y59.7311 W26.8734 H97.6748 ; mesh bed levelling

G1 Z0.2 F720
G1 Y-3 F1000 ; go outside print area
G92 E0
G1 X60 E9 F1000 ; intro line
G1 X100 E12.5 F1000 ; intro line

G92 E0
M221 S95

; Don't change E values below. Excessive value can damage the printer.
M907 E430 ; set extruder motor current
G21 ; set units to millimeters
G90 ; use absolute coordinates
M83 ; use relative distances for extrusion

M900 K0.05 ; Filament gcode LA 1.5
M900 K30 ; Filament gcode LA 1.0




M107
;LAYER_CHANGE
;Z:0.2
;HEIGHT:0.2
G1 E-.8 F2100
G1 Z.6 F720
G1 X181.36 Y60.86 F10800
G1 Z.2 F720
G1 E.8 F2100
M204 S800
;TYPE:Skirt/Brim
;WIDTH:0.42
G1 F1200
G1 X182.393 Y60.058 E.041
G1 X183.158 Y59.92 E.02437
G1 X190.962 Y59.92 E.24469
G1 X199.032 Y59.928 E.25303
G1 X200.472 Y60.087 E.04542
G1 X201.926 Y60.511 E.04749
G1 X202.954 Y60.991 E.03557
G1 X204.214 Y61.832 E.0475
G1 X205.553 Y63.171 E.05937
G1 X206.204 Y64.1 E.03557
G1 X206.808 Y65.315 E.04254
G1 X207.298 Y66.912 E.05238
G1 X207.466 Y68.543 E.05141
G1 X207.459 Y146.82 E2.45432
G1 X207.323 Y148.15 E.04192
G1 X206.962 Y149.499 E.04379
G1 X206.388 Y150.773 E.04381
G1 X205.83 Y151.658 E.0328
G1 X204.671 Y152.967 E.05482
G1 X203.572 Y153.829 E.04379
G1 X202.348 Y154.504 E.04383
G1 X201.033 Y154.974 E.04379
G1 X199.893 Y155.2 E.03644
G1 X183.424 Y157.219 E.52024
G1 X182.138 Y156.983 E.04099
G1 X181.216 Y156.055 E.04102
G1 X180.97 Y155.046 E.03256
G1 X180.97 Y62.108 E2.91401
G1 X181.343 Y60.917 E.03913
M73 Q0 S85
M204 S1000
;WIPE_START
G1 F8640
G1 X181.36 Y60.86 E-.01373
G1 X182.393 Y60.058 E-.30197
G1 X183.158 Y59.92 E-.17949
G1 X184.478 Y59.92 E-.30481
;WIPE_END
G1 Z.6 F720
; printing object kayboard_case_ergogen_v2_test_print.stl id:0 copy 0
G1 X201.106 Y148.477 F10800
G1 Z.2 F720
G1 E.8 F2100
M204 S800
;TYPE:Perimeter
;WIDTH:0.419999
G1 F1200
G1 X201.172 Y148.447 E.00227
G1 X201.22 Y148.382 E.00253
G1 X201.307 Y148.08 E.00985
G1 X201.307 Y131.137 E.53123
G1 X201.246 Y130.881 E.00825
G1 X201.123 Y130.719 E.00638
G1 X200.854 Y130.615 E.00904
G1 X200.854 Y129.602 E.03176
G1 X201.123 Y129.497 E.00905
G1 X201.246 Y129.335 E.00638
G1 X201.307 Y129.08 E.00822
G1 X201.307 Y112.137 E.53123
G1 X201.246 Y111.881 E.00825
G1 X201.123 Y111.719 E.00638
G1 X200.854 Y111.615 E.00904
G1 X200.854 Y110.602 E.03176
G1 X201.123 Y110.497 E.00905
G1 X201.246 Y110.335 E.00638
G1 X201.307 Y110.08 E.00822
G1 X201.307 Y93.137 E.53123
G1 X201.246 Y92.881 E.00825
G1 X201.123 Y92.719 E.00638
G1 X200.854 Y92.615 E.00904
G1 X200.854 Y91.602 E.03176
G1 X201.123 Y91.497 E.00905
G1 X201.246 Y91.335 E.00638
G1 X201.307 Y91.08 E.00822
G1 X201.307 Y74.137 E.53123
G1 X201.278 Y73.958 E.00569
G1 X201.2 Y73.805 E.00538
G1 X200.854 Y73.628 E.01219
G1 X200.854 Y63.297 E.32392
G1 X201.665 Y63.684 E.02818
G1 X202.505 Y64.29 E.03248
G1 X203.214 Y65.027 E.03206
G1 X203.778 Y65.872 E.03185
G1 X204.18 Y66.796 E.03159
G1 X204.414 Y67.771 E.03144
G1 X204.484 Y68.656 E.02784
G1 X204.484 Y146.612 E2.44425
G1 X204.412 Y147.5 E.02793
G1 X204.193 Y148.392 E.0288
G1 X203.833 Y149.238 E.02883
G1 X203.342 Y150.015 E.02882
G1 X202.733 Y150.703 E.02881
G1 X202.021 Y151.285 E.02883
G1 X201.243 Y151.734 E.02816
G1 X200.854 Y151.886 E.01309
G1 X200.854 Y148.594 E.10322
G1 X201.051 Y148.502 E.00682
M204 S1000
G1 X201.051 Y148.502 F10800
G1 X200.844 Y148.221
M204 S800
;TYPE:External perimeter
G1 F1200
G1 X200.885 Y148.202 E.00142
G1 X200.93 Y148.08 E.00408
G1 X200.93 Y131.137 E.53123
G1 X200.897 Y131.029 E.00354
G1 X200.742 Y130.948 E.00548
G1 X200.477 Y130.948 E.00831
G1 X200.477 Y129.268 E.05268
G1 X200.742 Y129.268 E.00831
G1 X200.869 Y129.219 E.00427
G1 X200.93 Y129.08 E.00476
G1 X200.93 Y112.137 E.53123
G1 X200.897 Y112.029 E.00354
G1 X200.742 Y111.948 E.00548
G1 X200.477 Y111.948 E.00831
G1 X200.477 Y110.268 E.05268
G1 X200.742 Y110.268 E.00831
G1 X200.869 Y110.219 E.00427
G1 X200.93 Y110.08 E.00476
G1 X200.93 Y93.137 E.53123
G1 X200.897 Y93.029 E.00354
G1 X200.742 Y92.948 E.00548
G1 X200.477 Y92.948 E.00831
G1 X200.477 Y91.268 E.05268
G1 X200.742 Y91.268 E.00831
G1 X200.869 Y91.219 E.00427
G1 X200.93 Y91.08 E.00476
G1 X200.93 Y74.137 E.53123
G1 X200.894 Y74.026 E.00366
G1 X200.742 Y73.948 E.00536
G1 X200.477 Y73.948 E.00831
G1 X200.477 Y62.78 E.35016
G1 X200.855 Y62.882 E.01228
G1 X201.818 Y63.33 E.0333
G1 X202.688 Y63.94 E.03332
G1 X203.439 Y64.691 E.0333
G1 X204.049 Y65.561 E.03332
G1 X204.498 Y66.524 E.03331
G1 X204.724 Y67.367 E.02737
G1 X204.789 Y67.738 E.01181
G1 X204.861 Y68.656 E.02887
G1 X204.861 Y146.628 E2.44475
G1 X204.786 Y147.56 E.02932
G1 X204.552 Y148.512 E.03074
G1 X204.168 Y149.413 E.03071
G1 X203.644 Y150.242 E.03075
G1 X202.995 Y150.976 E.03072
G1 X202.236 Y151.596 E.03073
G1 X201.388 Y152.087 E.03072
G1 X200.477 Y152.433 E.03055
G1 X200.477 Y148.268 E.13059
G1 X200.742 Y148.268 E.00831
G1 X200.789 Y148.246 E.00163
M204 S1000
;WIPE_START
G1 F8640
G1 X200.844 Y148.221 E-.01395
G1 X200.885 Y148.202 E-.01043
G1 X200.93 Y148.08 E-.03003
G1 X200.93 Y144.851 E-.74559
;WIPE_END
G1 Z.6 F720
G1 X201.553 Y63.818 F10800
G1 Z.2 F720
G1 E.8 F2100
M204 S800
;TYPE:Solid infill
;WIDTH:0.420734
G1 F1200
G1 X202.89 Y65.155 E.0594
G1 X203.426 Y65.921 E.02937
G1 X203.692 Y66.492 E.01979
G1 X201.193 Y63.993 E.11103
G1 X201.193 Y64.527 E.01678
G1 X203.963 Y67.297 E.12307
G1 X204.064 Y67.675 E.01229
G1 X204.089 Y67.958 E.00893
G1 X201.193 Y65.061 E.12869
G1 X201.193 Y65.596 E.01681
G1 X204.14 Y68.543 E.13093
G1 X204.145 Y68.592 E.00155
G1 X204.145 Y69.082 E.01539
G1 X201.193 Y66.13 E.13115
G1 X201.193 Y66.664 E.01678
G1 X204.145 Y69.616 E.13115
G1 X204.145 Y70.15 E.01678
G1 X201.193 Y67.199 E.13113
G1 X201.193 Y67.733 E.01678
G1 X204.145 Y70.685 E.13115
G1 X204.145 Y71.219 E.01678
G1 X201.193 Y68.267 E.13115
G1 X201.193 Y68.802 E.01681
G1 X204.145 Y71.753 E.13113
G1 X204.145 Y72.288 E.01681
G1 X201.193 Y69.336 E.13115
G1 X201.193 Y69.87 E.01678
G1 X204.145 Y72.822 E.13115
G1 X204.145 Y73.356 E.01678
G1 X201.193 Y70.405 E.13113
G1 X201.193 Y70.939 E.01678
G1 X204.145 Y73.891 E.13115
G1 X204.145 Y74.425 E.01678
G1 X201.193 Y71.473 E.13115
G1 X201.193 Y72.008 E.01681
G1 X204.145 Y74.959 E.13113
G1 X204.145 Y75.493 E.01678
G1 X201.193 Y72.542 E.13113
G1 X201.193 Y73.076 E.01678
G1 X204.145 Y76.028 E.13115
G1 X204.145 Y76.562 E.01678
G1 X201.635 Y74.052 E.11151
G1 X201.647 Y74.598 E.01716
G1 X204.145 Y77.096 E.11098
G1 X204.145 Y77.631 E.01681
G1 X201.647 Y75.133 E.11098
G1 X201.647 Y75.667 E.01678
G1 X204.145 Y78.165 E.11098
G1 X204.145 Y78.699 E.01678
G1 X201.647 Y76.201 E.11098
G1 X201.647 Y76.736 E.01681
G1 X204.145 Y79.234 E.11098
G1 X204.145 Y79.768 E.01678
G1 X201.647 Y77.27 E.11098
G1 X201.647 Y77.804 E.01678
G1 X204.145 Y80.302 E.11098
G1 X204.145 Y80.837 E.01681
G1 X201.647 Y78.339 E.11098
G1 X201.647 Y78.873 E.01678
G1 X204.145 Y81.371 E.11098
G1 X204.145 Y81.905 E.01678
G1 X201.647 Y79.407 E.11098
G1 X201.647 Y79.941 E.01678
G1 X204.145 Y82.439 E.11098
G1 X204.145 Y82.974 E.01681
G1 X201.647 Y80.476 E.11098
G1 X201.647 Y81.01 E.01678
G1 X204.145 Y83.508 E.11098
G1 X204.145 Y84.042 E.01678
G1 X201.647 Y81.544 E.11098
G1 X201.647 Y82.079 E.01681
G1 X204.145 Y84.577 E.11098
G1 X204.145 Y85.111 E.01678
G1 X201.647 Y82.613 E.11098
G1 X201.647 Y83.147 E.01678
G1 X204.145 Y85.645 E.11098
G1 X204.145 Y86.18 E.01681
G1 X201.647 Y83.682 E.11098
G1 X201.647 Y84.216 E.01678
G1 X204.145 Y86.714 E.11098
G1 X204.145 Y87.248 E.01678
G1 X201.647 Y84.75 E.11098
G1 X201.647 Y85.285 E.01681
M73 P0 R84
G1 X204.145 Y87.783 E.11098
G1 X204.145 Y88.317 E.01678
G1 X201.647 Y85.819 E.11098
G1 X201.647 Y86.353 E.01678
G1 X204.145 Y88.851 E.11098
G1 X204.145 Y89.385 E.01678
G1 X201.647 Y86.888 E.11096
G1 X201.647 Y87.422 E.01678
G1 X204.145 Y89.92 E.11098
G1 X204.145 Y90.454 E.01678
G1 X201.647 Y87.956 E.11098
G1 X201.647 Y88.49 E.01678
G1 X204.145 Y90.988 E.11098
G1 X204.145 Y91.523 E.01681
G1 X201.647 Y89.025 E.11098
G1 X201.647 Y89.559 E.01678
G1 X204.145 Y92.057 E.11098
G1 X204.145 Y92.591 E.01678
G1 X201.647 Y90.093 E.11098
G1 X201.647 Y90.628 E.01681
G1 X204.145 Y93.126 E.11098
G1 X204.145 Y93.66 E.01678
M73 Q1 S85
G1 X201.641 Y91.156 E.11125
G1 X201.633 Y91.241 E.00268
G1 X201.553 Y91.483 E.00801
G1 X201.508 Y91.558 E.00275
G1 X204.145 Y94.194 E.11713
G1 X204.145 Y94.729 E.01681
M73 P1 R84
G1 X201.224 Y91.808 E.12977
G1 X201.193 Y91.821 E.00106
G1 X201.193 Y92.311 E.01539
G1 X204.145 Y95.263 E.13115
G1 X204.145 Y95.797 E.01678
G1 X201.647 Y93.299 E.11098
G1 X201.647 Y93.834 E.01681
G1 X204.145 Y96.332 E.11098
G1 X204.145 Y96.866 E.01678
G1 X201.647 Y94.368 E.11098
G1 X201.647 Y94.902 E.01678
G1 X204.145 Y97.4 E.11098
G1 X204.145 Y97.934 E.01678
G1 X201.647 Y95.436 E.11098
G1 X201.647 Y95.971 E.01681
G1 X204.145 Y98.469 E.11098
G1 X204.145 Y99.003 E.01678
G1 X201.647 Y96.505 E.11098
G1 X201.647 Y97.039 E.01678
G1 X204.145 Y99.537 E.11098
G1 X204.145 Y100.072 E.01681
G1 X201.647 Y97.574 E.11098
G1 X201.647 Y98.108 E.01678
G1 X204.145 Y100.606 E.11098
G1 X204.145 Y101.14 E.01678
G1 X201.647 Y98.642 E.11098
G1 X201.647 Y99.177 E.01681
G1 X204.145 Y101.675 E.11098
G1 X204.145 Y102.209 E.01678
G1 X201.647 Y99.711 E.11098
G1 X201.647 Y100.245 E.01678
G1 X204.145 Y102.743 E.11098
G1 X204.145 Y103.278 E.01681
G1 X201.647 Y100.78 E.11098
G1 X201.647 Y101.314 E.01678
G1 X204.145 Y103.812 E.11098
G1 X204.145 Y104.346 E.01678
G1 X201.647 Y101.848 E.11098
G1 X201.647 Y102.382 E.01678
G1 X204.145 Y104.88 E.11098
G1 X204.145 Y105.415 E.01681
G1 X201.647 Y102.917 E.11098
G1 X201.647 Y103.451 E.01678
G1 X204.145 Y105.949 E.11098
G1 X204.145 Y106.483 E.01678
G1 X201.647 Y103.985 E.11098
G1 X201.647 Y104.52 E.01681
G1 X204.145 Y107.018 E.11098
G1 X204.145 Y107.552 E.01678
G1 X201.647 Y105.054 E.11098
G1 X201.647 Y105.588 E.01678
G1 X204.145 Y108.086 E.11098
G1 X204.145 Y108.621 E.01681
G1 X201.647 Y106.123 E.11098
G1 X201.647 Y106.657 E.01678
G1 X204.145 Y109.155 E.11098
G1 X204.145 Y109.689 E.01678
G1 X201.647 Y107.191 E.11098
G1 X201.647 Y107.726 E.01681
G1 X204.145 Y110.224 E.11098
G1 X204.145 Y110.758 E.01678
G1 X201.647 Y108.26 E.11098
G1 X201.647 Y108.794 E.01678
G1 X204.145 Y111.292 E.11098
G1 X204.145 Y111.826 E.01678
G1 X201.647 Y109.329 E.11096
G1 X201.647 Y109.863 E.01678
G1 X204.145 Y112.361 E.11098
G1 X204.145 Y112.895 E.01678
G1 X201.598 Y110.348 E.11316
G1 X201.553 Y110.483 E.00447
G1 X201.405 Y110.689 E.00797
G1 X204.145 Y113.429 E.12173
G1 X204.145 Y113.964 E.01681
G1 X201.193 Y111.012 E.13115
G1 X201.193 Y111.396 E.01206
G1 X201.339 Y111.453 E.00492
G1 X201.484 Y111.618 E.0069
G1 X201.556 Y111.739 E.00442
G1 X201.609 Y111.963 E.00723
G1 X204.145 Y114.498 E.11265
G1 X204.145 Y115.032 E.01678
G1 X201.647 Y112.534 E.11098
G1 X201.647 Y113.069 E.01681
G1 X204.145 Y115.567 E.11098
G1 X204.145 Y116.101 E.01678
G1 X201.647 Y113.603 E.11098
G1 X201.647 Y114.137 E.01678
G1 X204.145 Y116.635 E.11098
G1 X204.145 Y117.17 E.01681
G1 X201.647 Y114.672 E.11098
G1 X201.647 Y115.206 E.01678
G1 X204.145 Y117.704 E.11098
G1 X204.145 Y118.238 E.01678
G1 X201.647 Y115.74 E.11098
G1 X201.647 Y116.275 E.01681
G1 X204.145 Y118.773 E.11098
G1 X204.145 Y119.307 E.01678
G1 X201.647 Y116.809 E.11098
G1 X201.647 Y117.343 E.01678
G1 X204.145 Y119.841 E.11098
G1 X204.145 Y120.375 E.01678
G1 X201.647 Y117.877 E.11098
G1 X201.647 Y118.412 E.01681
G1 X204.145 Y120.91 E.11098
G1 X204.145 Y121.444 E.01678
G1 X201.647 Y118.946 E.11098
G1 X201.647 Y119.48 E.01678
G1 X204.145 Y121.978 E.11098
G1 X204.145 Y122.513 E.01681
G1 X201.647 Y120.015 E.11098
G1 X201.647 Y120.549 E.01678
G1 X204.145 Y123.047 E.11098
G1 X204.145 Y123.581 E.01678
G1 X201.647 Y121.083 E.11098
G1 X201.647 Y121.618 E.01681
G1 X204.145 Y124.116 E.11098
G1 X204.145 Y124.65 E.01678
G1 X201.647 Y122.152 E.11098
G1 X201.647 Y122.686 E.01678
G1 X204.145 Y125.184 E.11098
G1 X204.145 Y125.719 E.01681
G1 X201.647 Y123.221 E.11098
G1 X201.647 Y123.755 E.01678
G1 X204.145 Y126.253 E.11098
G1 X204.145 Y126.787 E.01678
G1 X201.647 Y124.289 E.11098
G1 X201.647 Y124.824 E.01681
G1 X204.145 Y127.321 E.11096
G1 X204.145 Y127.856 E.01681
G1 X201.647 Y125.358 E.11098
G1 X201.647 Y125.892 E.01678
G1 X204.145 Y128.39 E.11098
G1 X204.145 Y128.924 E.01678
G1 X201.647 Y126.426 E.11098
G1 X201.647 Y126.961 E.01681
G1 X204.145 Y129.459 E.11098
G1 X204.145 Y129.993 E.01678
G1 X201.647 Y127.495 E.11098
G1 X201.647 Y128.029 E.01678
G1 X204.145 Y130.527 E.11098
G1 X204.145 Y131.062 E.01681
G1 X201.647 Y128.564 E.11098
G1 X201.646 Y129.097 E.01674
G1 X204.145 Y131.596 E.11103
G1 X204.145 Y132.13 E.01678
G1 X201.532 Y129.518 E.11607
G1 X201.339 Y129.764 E.00982
G1 X201.271 Y129.79 E.00229
G1 X204.145 Y132.665 E.12771
G1 X204.145 Y133.199 E.01678
G1 X201.193 Y130.247 E.13115
G1 X201.193 Y130.396 E.00468
G1 X201.339 Y130.453 E.00492
G1 X201.484 Y130.618 E.0069
G1 X201.556 Y130.739 E.00442
G1 X201.647 Y131.119 E.01228
G1 X201.647 Y131.235 E.00364
G1 X204.145 Y133.733 E.11098
G1 X204.145 Y134.268 E.01681
G1 X201.647 Y131.77 E.11098
G1 X201.647 Y132.304 E.01678
G1 X204.145 Y134.802 E.11098
G1 X204.145 Y135.336 E.01678
G1 X201.647 Y132.838 E.11098
G1 X201.647 Y133.372 E.01678
G1 X204.145 Y135.87 E.11098
G1 X204.145 Y136.405 E.01681
G1 X201.647 Y133.907 E.11098
G1 X201.647 Y134.441 E.01678
G1 X204.145 Y136.939 E.11098
G1 X204.145 Y137.473 E.01678
G1 X201.647 Y134.975 E.11098
G1 X201.647 Y135.51 E.01681
G1 X204.145 Y138.008 E.11098
G1 X204.145 Y138.542 E.01678
G1 X201.647 Y136.044 E.11098
G1 X201.647 Y136.578 E.01678
G1 X204.145 Y139.076 E.11098
G1 X204.145 Y139.611 E.01681
G1 X201.647 Y137.113 E.11098
G1 X201.647 Y137.647 E.01678
G1 X204.145 Y140.145 E.11098
G1 X204.145 Y140.679 E.01678
G1 X201.647 Y138.181 E.11098
G1 X201.647 Y138.716 E.01681
G1 X204.145 Y141.214 E.11098
G1 X204.145 Y141.748 E.01678
G1 X201.647 Y139.25 E.11098
G1 X201.647 Y139.784 E.01678
G1 X204.145 Y142.282 E.11098
G1 X204.145 Y142.816 E.01678
G1 X201.647 Y140.318 E.11098
G1 X201.647 Y140.853 E.01681
G1 X204.145 Y143.351 E.11098
G1 X204.145 Y143.885 E.01678
G1 X201.647 Y141.387 E.11098
G1 X201.647 Y141.921 E.01678
G1 X204.145 Y144.419 E.11098
G1 X204.145 Y144.954 E.01681
G1 X201.647 Y142.456 E.11098
G1 X201.647 Y142.99 E.01678
G1 X204.145 Y145.488 E.11098
G1 X204.145 Y146.022 E.01678
G1 X201.647 Y143.524 E.11098
G1 X201.647 Y144.059 E.01681
G1 X204.145 Y146.557 E.11098
G1 X204.145 Y146.599 E.00132
G1 X204.108 Y147.054 E.01434
G1 X201.647 Y144.593 E.10934
G1 X201.647 Y145.127 E.01678
G1 X204.054 Y147.535 E.10696
G1 X203.949 Y147.964 E.01387
G1 X201.647 Y145.662 E.10227
G1 X201.647 Y146.196 E.01678
G1 X203.83 Y148.379 E.09699
G1 X203.67 Y148.753 E.01278
G1 X201.647 Y146.73 E.08988
G1 X201.647 Y147.265 E.01681
G1 X203.504 Y149.122 E.0825
G1 X203.297 Y149.449 E.01216
G1 X201.647 Y147.799 E.07331
G1 X201.647 Y148.09 E.00914
G1 X201.618 Y148.304 E.00678
G1 X203.091 Y149.777 E.06544
G1 X202.844 Y150.065 E.01192
G1 X201.448 Y148.668 E.06204
G1 X201.193 Y148.792 E.00891
G1 X201.193 Y148.948 E.0049
G1 X202.593 Y150.348 E.0622
