; generated by PrusaSlicer 2.9.0 on 2025-02-20 at 19:10:23 UTC


;
;
; 

; external perimeters extrusion width = 0.45mm
; perimeters extrusion width = 0.45mm
; infill extrusion width = 0.45mm
; solid infill extrusion width = 0.45mm
; top infill extrusion width = 0.40mm
; first layer extrusion width = 0.42mm

M73 P0 R93
M73 Q0 S93
M201 X1000 Y1000 Z200 E5000 ; sets maximum accelerations, mm/sec^2
M203 X200 Y200 Z12 E120 ; sets maximum feedrates, mm / sec
M204 S1250 T1250 ; sets acceleration (S) and retract acceleration (R), mm/sec^2
M205 X8.00 Y8.00 Z0.40 E4.50 ; sets the jerk limits, mm/sec
M205 S0 T0 ; sets the minimum extruding and travel feed rate, mm/sec

; printing object openjscad(large).stl id:0 copy 0
; stop printing object openjscad(large).stl id:0 copy 0

;TYPE:Custom
M862.3 P "MK3S" ; printer model check
M862.1 P0.4 ; nozzle diameter check
M115 U3.14.1 ; tell printer latest fw version
G90 ; use absolute coordinates
M83 ; extruder relative mode
M104 S215 ; set extruder temp
M140 S60 ; set bed temp
M190 S60 ; wait for bed temp
M109 S215 ; wait for extruder temp
G28 W ; home all without mesh bed level
G80 X49.2256 Y40.7398 W151.547 H128.528 ; mesh bed levelling

G1 Z0.2 F720
G1 Y-3 F1000 ; go outside print area
G92 E0
G1 X60 E9 F1000 ; intro line
G1 X100 E12.5 F1000 ; intro line

G92 E0
M221 S95

; Don't change E values below. Excessive value can damage the printer.
M907 E430 ; set extruder motor current
G21 ; set units to millimeters
G90 ; use absolute coordinates
M83 ; use relative distances for extrusion

M900 K0.05 ; Filament gcode LA 1.5
M900 K30 ; Filament gcode LA 1.0




M107
;LAYER_CHANGE
;Z:0.2
;HEIGHT:0.2
G1 E-.8 F2100
G1 Z.6 F720
G1 X52.133 Y60.016 F10800
G1 Z.2 F720
G1 E.8 F2100
M204 S800
;TYPE:Skirt/Brim
;WIDTH:0.42
G1 F1200
G1 X53.178 Y59.326 E.03926
G1 X53.968 Y58.957 E.02734
G1 X55.447 Y58.546 E.04813
G1 X187.602 Y41.01 E4.17995
G1 X188.918 Y40.928 E.04134
M73 P0 R92
G1 X190.127 Y41.062 E.03814
G1 X191.295 Y41.398 E.03811
G1 X192.449 Y41.966 E.04033
G1 X193.381 Y42.632 E.03592
G1 X193.993 Y43.217 E.02655
G1 X194.742 Y44.174 E.0381
G1 X195.32 Y45.244 E.03813
G1 X195.709 Y46.396 E.03812
G1 X195.914 Y47.782 E.04393
G1 X200.584 Y150.522 E3.22467
G1 X200.513 Y151.871 E.04236
G1 X200.252 Y153.014 E.03676
G1 X199.962 Y153.777 E.02559
G1 X199.194 Y155.098 E.04791
G1 X198.674 Y155.728 E.02561
G1 X197.811 Y156.52 E.03673
G1 X196.511 Y157.324 E.04793
G1 X195.416 Y157.744 E.03677
G1 X194.455 Y157.959 E.03088
G1 X121.618 Y168.989 E2.30979
G1 X120.225 Y169.075 E.04376
G1 X102.587 Y167.103 E.55647
G1 X101.6 Y166.918 E.03149
G1 X54.429 Y150.462 E1.56643
G1 X53.359 Y150.025 E.03624
G1 X52.374 Y149.422 E.03621
G1 X51.498 Y148.669 E.03622
G1 X50.965 Y148.067 E.02521
G1 X50.324 Y147.106 E.03622
G1 X49.846 Y146.054 E.03623
G1 X49.542 Y144.94 E.03621
G1 X49.414 Y143.615 E.04174
G1 X49.414 Y65.639 E2.44488
G1 X49.565 Y64.205 E.04521
M73 Q0 S92
G1 X49.921 Y63.004 E.03928
G1 X50.289 Y62.214 E.02733
G1 X50.98 Y61.17 E.03925
G1 X52.091 Y60.059 E.04926
M204 S1000
;WIPE_START
G1 F8640
G1 X52.133 Y60.016 E-.01388
G1 X53.178 Y59.326 E-.28915
G1 X53.968 Y58.957 E-.20133
G1 X55.201 Y58.614 E-.29564
;WIPE_END
G1 Z.6 F720
; printing object openjscad(large).stl id:0 copy 0
G1 X128.218 Y104.239 F10800
G1 Z.2 F720
G1 E.8 F2100
M204 S800
;TYPE:Perimeter
;WIDTH:0.419999
G1 F1200
G1 X128.164 Y104.313 E.00287
G1 X128.023 Y104.39 E.00504
G1 X127.824 Y104.426 E.00634
G1 X113.381 Y104.426 E.45285
G1 X113.183 Y104.39 E.00631
G1 X112.929 Y104.2 E.00995
G1 X112.824 Y103.959 E.00824
G1 X112.816 Y103.418 E.01696
G1 X112.816 Y89.418 E.43896
G1 X112.846 Y89.234 E.00585
G1 X113.042 Y88.965 E.01044
G1 X113.332 Y88.854 E.00974
G1 X113.381 Y88.852 E.00154
G1 X127.824 Y88.852 E.45285
G1 X128.023 Y88.888 E.00634
G1 X128.277 Y89.079 E.00996
G1 X128.359 Y89.234 E.0055
G1 X128.39 Y89.418 E.00585
G1 X128.39 Y103.861 E.45285
G1 X128.359 Y104.044 E.00582
G1 X128.253 Y104.19 E.00566
M204 S1000
G1 X128.253 Y104.19 F10800
G1 X127.961 Y103.964
M204 S800
;TYPE:External perimeter
G1 F1200
G1 X127.937 Y104.012 E.00168
G1 X127.824 Y104.049 E.00373
G1 X113.381 Y104.049 E.45285
G1 X113.23 Y103.974 E.00529
G1 X113.193 Y103.861 E.00373
G1 X113.193 Y89.418 E.45285
G1 X113.268 Y89.267 E.00529
G1 X113.381 Y89.229 E.00374
G1 X127.824 Y89.229 E.45285
G1 X127.975 Y89.305 E.0053
G1 X128.013 Y89.418 E.00374
G1 X128.013 Y103.861 E.45285
G1 X127.988 Y103.91 E.00172
M204 S1000
;WIPE_START
G1 F8640
G1 X127.961 Y103.964 E-.01394
G1 X127.937 Y104.012 E-.01239
G1 X127.824 Y104.049 E-.02746
G1 X124.592 Y104.049 E-.74621
;WIPE_END
G1 Z.6 F720
G1 X147.23 Y102.038 F10800
G1 Z.2 F720
G1 E.8 F2100
M204 S800
;TYPE:Perimeter
G1 F1200
G1 X147.366 Y102.256 E.00806
G1 X147.39 Y102.418 E.00513
G1 X147.39 Y116.861 E.45285
G1 X147.317 Y117.138 E.00898
G1 X147.165 Y117.312 E.00724
G1 X147.024 Y117.39 E.00505
G1 X146.824 Y117.426 E.00637
G1 X132.381 Y117.426 E.45285
G1 X132.183 Y117.39 E.00631
G1 X131.929 Y117.2 E.00995
G1 X131.824 Y116.959 E.00824
G1 X131.816 Y116.861 E.00308
G1 X131.816 Y102.418 E.45285
G1 X131.846 Y102.234 E.00585
G1 X132.042 Y101.965 E.01044
G1 X132.332 Y101.854 E.00974
G1 X132.381 Y101.852 E.00154
G1 X146.824 Y101.852 E.45285
G1 X147.024 Y101.889 E.00638
G1 X147.193 Y101.993 E.00622
M204 S1000
G1 X146.968 Y102.316 F10800
M204 S800
;TYPE:External perimeter
G1 F1200
G1 X147.013 Y102.418 E.0035
G1 X147.013 Y116.861 E.45285
G1 X146.965 Y116.986 E.0042
G1 X146.824 Y117.049 E.00484
G1 X132.381 Y117.049 E.45285
G1 X132.23 Y116.974 E.00529
G1 X132.193 Y116.861 E.00373
G1 X132.193 Y102.418 E.45285
G1 X132.268 Y102.267 E.00529
G1 X132.381 Y102.229 E.00374
G1 X146.824 Y102.229 E.45285
G1 X146.934 Y102.272 E.0037
M204 S1000
;WIPE_START
G1 F8640
G1 X146.968 Y102.316 E-.01284
G1 X147.013 Y102.418 E-.02574
G1 X147.013 Y105.716 E-.76142
;WIPE_END
G1 Z.6 F720
G1 X147.22 Y98.249 F10800
G1 Z.2 F720
G1 E.8 F2100
M204 S800
;TYPE:Perimeter
G1 F1200
G1 X147.165 Y98.312 E.00262
G1 X147.024 Y98.39 E.00505
G1 X146.824 Y98.426 E.00637
G1 X132.381 Y98.426 E.45285
G1 X132.183 Y98.39 E.00631
G1 X131.929 Y98.2 E.00995
G1 X131.824 Y97.959 E.00824
G1 X131.816 Y97.861 E.00308
G1 X131.816 Y83.418 E.45285
G1 X131.846 Y83.234 E.00585
G1 X132.042 Y82.965 E.01044
G1 X132.332 Y82.854 E.00974
G1 X132.381 Y82.852 E.00154
G1 X146.824 Y82.852 E.45285
G1 X147.024 Y82.889 E.00638
G1 X147.207 Y83.002 E.00674
G1 X147.366 Y83.256 E.0094
G1 X147.39 Y83.418 E.00513
G1 X147.39 Y97.861 E.45285
G1 X147.317 Y98.138 E.00898
G1 X147.26 Y98.204 E.00273
M204 S1000
G1 X147.26 Y98.204 F10800
G1 X146.926 Y98.004
M204 S800
;TYPE:External perimeter
G1 F1200
G1 X146.824 Y98.049 E.0035
G1 X132.381 Y98.049 E.45285
G1 X132.23 Y97.974 E.00529
G1 X132.193 Y97.861 E.00373
G1 X132.193 Y83.418 E.45285
G1 X132.268 Y83.267 E.00529
G1 X132.381 Y83.229 E.00374
G1 X146.824 Y83.229 E.45285
G1 X146.952 Y83.279 E.00431
G1 X147.013 Y83.418 E.00476
G1 X147.013 Y97.861 E.45285
G1 X146.971 Y97.97 E.00366
M204 S1000
;WIPE_START
G1 F8640
G1 X146.926 Y98.004 E-.01302
G1 X146.824 Y98.049 E-.02574
G1 X143.527 Y98.049 E-.76124
;WIPE_END
G1 Z.6 F720
G1 X166.22 Y96.25 F10800
G1 Z.2 F720
G1 E.8 F2100
M204 S800
;TYPE:Perimeter
G1 F1200
G1 X166.167 Y96.311 E.00253
G1 X165.963 Y96.409 E.0071
G1 X165.824 Y96.426 E.00439
G1 X151.381 Y96.426 E.45285
G1 X151.182 Y96.39 E.00634
G1 X150.998 Y96.277 E.00677
G1 X150.839 Y96.023 E.0094
G1 X150.816 Y95.861 E.00513
G1 X150.816 Y81.418 E.45285
G1 X150.866 Y81.185 E.00747
G1 X150.992 Y81.007 E.00684
G1 X151.193 Y80.885 E.00737
G1 X151.708 Y80.852 E.01618
G1 X165.824 Y80.852 E.4426
G1 X166.033 Y80.892 E.00667
G1 X166.252 Y81.048 E.00843
G1 X166.373 Y81.281 E.00823
G1 X166.39 Y82.251 E.03042
G1 X166.39 Y95.861 E.42673
G1 X166.311 Y96.149 E.00936
M73 Q1 S92
G1 X166.26 Y96.206 E.0024
M204 S1000
G1 X166.26 Y96.206 F10800
G1 X165.962 Y95.964
M204 S800
;TYPE:External perimeter
G1 F1200
G1 X165.938 Y96.011 E.00165
G1 X165.824 Y96.049 E.00377
G1 X151.381 Y96.049 E.45285
G1 X151.254 Y96 E.00427
M73 P1 R92
G1 X151.193 Y95.861 E.00476
G1 X151.193 Y81.418 E.45285
G1 X151.252 Y81.281 E.00468
G1 X151.381 Y81.229 E.00436
G1 X165.824 Y81.229 E.45285
G1 X165.967 Y81.295 E.00494
G1 X166.013 Y81.418 E.00412
G1 X166.013 Y95.861 E.45285
G1 X165.988 Y95.91 E.00172
M204 S1000
;WIPE_START
G1 F8640
G1 X165.962 Y95.964 E-.01384
G1 X165.938 Y96.011 E-.01219
G1 X165.824 Y96.049 E-.02775
G1 X162.592 Y96.049 E-.74622
;WIPE_END
G1 Z.6 F720
G1 X150.975 Y115.24 F10800
G1 Z.2 F720
G1 E.8 F2100
M204 S800
;TYPE:Perimeter
G1 F1200
G1 X150.839 Y115.023 E.00803
G1 X150.816 Y114.861 E.00513
G1 X150.816 Y100.418 E.45285
G1 X150.888 Y100.141 E.00897
G1 X151.041 Y99.966 E.00729
G1 X151.332 Y99.854 E.00978
G1 X151.381 Y99.852 E.00154
G1 X165.824 Y99.852 E.45285
G1 X166.08 Y99.913 E.00825
G1 X166.227 Y100.021 E.00572
G1 X166.311 Y100.13 E.00431
G1 X166.39 Y100.418 E.00936
G1 X166.39 Y114.861 E.45285
G1 X166.331 Y115.112 E.00808
G1 X166.14 Y115.33 E.00909
G1 X165.824 Y115.426 E.01036
G1 X151.381 Y115.426 E.45285
G1 X151.182 Y115.39 E.00634
G1 X151.012 Y115.286 E.00625
M204 S1000
G1 X151.012 Y115.286 F10800
G1 X151.237 Y114.962
M204 S800
;TYPE:External perimeter
G1 F1200
G1 X151.193 Y114.861 E.00345
G1 X151.193 Y100.418 E.45285
G1 X151.24 Y100.293 E.00419
G1 X151.381 Y100.229 E.00486
G1 X165.824 Y100.229 E.45285
G1 X165.958 Y100.286 E.00457
G1 X165.986 Y100.322 E.00143
G1 X166.013 Y100.861 E.01692
G1 X166.013 Y114.861 E.43896
G1 X165.958 Y114.994 E.00451
G1 X165.824 Y115.049 E.00454
G1 X151.381 Y115.049 E.45285
G1 X151.272 Y115.007 E.00366
M204 S1000
;WIPE_START
G1 F8640
G1 X151.237 Y114.962 E-.01316
G1 X151.193 Y114.861 E-.02544
G1 X151.193 Y111.563 E-.7614
;WIPE_END
G1 Z.6 F720
G1 X170.993 Y101.25 F10800
G1 Z.2 F720
G1 E.8 F2100
M204 S800
;TYPE:Perimeter
G1 F1200
G1 X170.901 Y101.16 E.00404
G1 X170.816 Y100.861 E.00975
G1 X170.816 Y96.345 E.1416
G1 X170.816 Y86.418 E.31125
G1 X170.909 Y86.107 E.01018
G1 X171.115 Y85.919 E.00874
G1 X171.381 Y85.852 E.0086
G1 X185.824 Y85.852 E.45285
G1 X186.089 Y85.918 E.00856
G1 X186.271 Y86.071 E.00745
G1 X186.382 Y86.322 E.00861
G1 X186.39 Y86.418 E.00302
G1 X186.39 Y100.861 E.45285
G1 X186.331 Y101.113 E.00811
G1 X186.187 Y101.295 E.00728
G1 X185.966 Y101.408 E.00778
G1 X185.824 Y101.426 E.00449
G1 X171.381 Y101.426 E.45285
G1 X171.094 Y101.348 E.00933
G1 X171.036 Y101.292 E.00253
M204 S1000
G1 X171.036 Y101.292 F10800
G1 X171.236 Y100.962
M204 S800
;TYPE:External perimeter
G1 F1200
G1 X171.193 Y100.861 E.00344
G1 X171.193 Y96.345 E.1416
G1 X171.193 Y86.418 E.31125
G1 X171.256 Y86.277 E.00484
M73 P1 R91
G1 X171.381 Y86.229 E.0042
G1 X185.824 Y86.229 E.45285
G1 X185.954 Y86.281 E.00439
G1 X186.013 Y86.418 E.00468
G1 X186.013 Y100.861 E.45285
G1 X185.945 Y101.005 E.00499
G1 X185.824 Y101.049 E.00404
G1 X171.381 Y101.049 E.45285
G1 X171.271 Y101.005 E.00371
M204 S1000
;WIPE_START
G1 F8640
G1 X171.236 Y100.962 E-.0128
G1 X171.193 Y100.861 E-.02535
G1 X171.193 Y97.561 E-.76185
;WIPE_END
G1 Z.6 F720
G1 X166.216 Y134.244 F10800
G1 Z.2 F720
G1 E.8 F2100
M204 S800
;TYPE:Perimeter
G1 F1200
G1 X166.146 Y134.326 E.00338
G1 X166.009 Y134.395 E.00481
G1 X165.824 Y134.426 E.00588
G1 X151.381 Y134.426 E.45285
G1 X151.182 Y134.39 E.00634
G1 X150.998 Y134.277 E.00677
G1 X150.839 Y134.023 E.0094
G1 X150.816 Y133.861 E.00513
G1 X150.816 Y119.418 E.45285
G1 X150.888 Y119.141 E.00897
G1 X151.041 Y118.966 E.00729
G1 X151.332 Y118.854 E.00978
G1 X151.381 Y118.852 E.00154
G1 X165.824 Y118.852 E.45285
G1 X166.14 Y118.949 E.01036
G1 X166.331 Y119.167 E.00909
G1 X166.39 Y119.418 E.00808
G1 X166.39 Y133.861 E.45285
G1 X166.334 Y134.106 E.00788
G1 X166.255 Y134.199 E.00383
M204 S1000
G1 X166.255 Y134.199 F10800
G1 X165.925 Y134.006
M204 S800
;TYPE:External perimeter
G1 F1200
G1 X165.824 Y134.049 E.00344
G1 X151.381 Y134.049 E.45285
G1 X151.254 Y134 E.00427
G1 X151.193 Y133.861 E.00476
G1 X151.193 Y119.418 E.45285
G1 X151.24 Y119.293 E.00419
G1 X151.381 Y119.229 E.00486
G1 X165.824 Y119.229 E.45285
G1 X165.975 Y119.305 E.0053
G1 X166.013 Y119.418 E.00374
G1 X166.013 Y133.861 E.45285
G1 X165.968 Y133.971 E.00373
M204 S1000
;WIPE_START
G1 F8640
G1 X165.925 Y134.006 E-.0128
G1 X165.824 Y134.049 E-.02535
G1 X162.525 Y134.049 E-.76185
;WIPE_END
G1 Z.6 F720
G1 X147.22 Y136.249 F10800
G1 Z.2 F720
G1 E.8 F2100
M204 S800
;TYPE:Perimeter
G1 F1200
G1 X147.165 Y136.312 E.00262
G1 X147.024 Y136.39 E.00505
G1 X146.824 Y136.426 E.00637
G1 X132.381 Y136.426 E.45285
G1 X132.183 Y136.39 E.00631
G1 X131.929 Y136.2 E.00995
G1 X131.824 Y135.959 E.00824
G1 X131.816 Y135.861 E.00308
G1 X131.816 Y123.62 E.38381
G1 X131.816 Y121.418 E.06904
G1 X131.846 Y121.234 E.00585
G1 X132.042 Y120.965 E.01044
G1 X132.332 Y120.854 E.00974
G1 X146.824 Y120.852 E.45439
G1 X147.024 Y120.889 E.00638
G1 X147.207 Y121.002 E.00674
G1 X147.366 Y121.256 E.0094
G1 X147.39 Y121.418 E.00513
G1 X147.39 Y135.861 E.45285
G1 X147.317 Y136.138 E.00898
G1 X147.26 Y136.204 E.00273
M204 S1000
G1 X147.26 Y136.204 F10800
G1 X146.926 Y136.004
M204 S800
;TYPE:External perimeter
G1 F1200
G1 X146.824 Y136.049 E.0035
G1 X132.381 Y136.049 E.45285
G1 X132.23 Y135.974 E.00529
G1 X132.193 Y135.861 E.00373
G1 X132.193 Y123.62 E.38381
G1 X132.193 Y121.418 E.06904
G1 X132.268 Y121.267 E.00529
G1 X132.381 Y121.229 E.00374
G1 X146.824 Y121.229 E.45285
G1 X146.952 Y121.279 E.00431
G1 X147.013 Y121.418 E.00476
G1 X147.013 Y135.861 E.45285
G1 X146.971 Y135.97 E.00366
M204 S1000
;WIPE_START
G1 F8640
G1 X146.926 Y136.004 E-.01302
G1 X146.824 Y136.049 E-.02574
G1 X143.527 Y136.049 E-.76124
;WIPE_END
G1 Z.6 F720
G1 X128.218 Y123.239 F10800
G1 Z.2 F720
G1 E.8 F2100
M204 S800
;TYPE:Perimeter
G1 F1200
G1 X128.164 Y123.313 E.00287
G1 X128.023 Y123.39 E.00504
G1 X127.824 Y123.426 E.00634
G1 X113.381 Y123.426 E.45285
G1 X113.183 Y123.39 E.00631
G1 X112.929 Y123.2 E.00995
G1 X112.824 Y122.959 E.00824
G1 X112.816 Y120.899 E.06459
G1 X112.816 Y108.418 E.39133
G1 X112.846 Y108.234 E.00585
G1 X113.042 Y107.965 E.01044
G1 X113.332 Y107.854 E.00974
G1 X113.381 Y107.852 E.00154
G1 X127.824 Y107.852 E.45285
G1 X128.023 Y107.888 E.00634
G1 X128.277 Y108.079 E.00996
G1 X128.359 Y108.234 E.0055
G1 X128.39 Y108.418 E.00585
G1 X128.39 Y122.861 E.45285
G1 X128.359 Y123.044 E.00582
G1 X128.253 Y123.19 E.00566
M204 S1000
G1 X128.253 Y123.19 F10800
G1 X127.961 Y122.964
M204 S800
;TYPE:External perimeter
G1 F1200
G1 X127.937 Y123.012 E.00168
G1 X127.824 Y123.049 E.00373
G1 X113.381 Y123.049 E.45285
G1 X113.23 Y122.974 E.00529
M73 Q1 S91
G1 X113.193 Y122.861 E.00373
G1 X113.193 Y120.899 E.06152
G1 X113.193 Y108.418 E.39133
G1 X113.268 Y108.267 E.00529
G1 X113.381 Y108.229 E.00374
G1 X127.824 Y108.229 E.45285
G1 X127.975 Y108.305 E.0053
G1 X128.013 Y108.418 E.00374
G1 X128.013 Y122.861 E.45285
G1 X127.988 Y122.91 E.00172
M204 S1000
;WIPE_START
G1 F8640
G1 X127.961 Y122.964 E-.01394
G1 X127.937 Y123.012 E-.01239
G1 X127.824 Y123.049 E-.02746
G1 X124.592 Y123.049 E-.74621
;WIPE_END
G1 Z.6 F720
G1 X128.204 Y127.024 F10800
G1 Z.2 F720
G1 E.8 F2100
M204 S800
;TYPE:Perimeter
G1 F1200
G1 X128.277 Y127.079 E.00287
G1 X128.359 Y127.234 E.0055
G1 X128.39 Y127.418 E.00585
G1 X128.39 Y141.861 E.45285
G1 X128.359 Y142.044 E.00582
G1 X128.164 Y142.313 E.01042
G1 X128.023 Y142.39 E.00504
G1 X127.824 Y142.426 E.00634
G1 X113.381 Y142.426 E.45285
G1 X113.183 Y142.39 E.00631
G1 X112.929 Y142.2 E.00995
G1 X112.824 Y141.959 E.00824
G1 X112.816 Y141.418 E.01696
G1 X112.816 Y127.418 E.43896
G1 X112.846 Y127.234 E.00585
G1 X113.042 Y126.965 E.01044
G1 X113.332 Y126.854 E.00974
G1 X113.381 Y126.852 E.00154
G1 X127.824 Y126.852 E.45285
G1 X128.023 Y126.888 E.00634
G1 X128.155 Y126.988 E.00519
M204 S1000
G1 X128.155 Y126.988 F10800
G1 X127.927 Y127.281
M204 S800
;TYPE:External perimeter
G1 F1200
G1 X127.975 Y127.305 E.00168
G1 X128.013 Y127.418 E.00374
G1 X128.013 Y141.861 E.45285
G1 X127.937 Y142.012 E.0053
G1 X127.824 Y142.049 E.00373
G1 X113.381 Y142.049 E.45285
G1 X113.23 Y141.974 E.00529
G1 X113.193 Y141.861 E.00373
G1 X113.193 Y127.418 E.45285
G1 X113.268 Y127.267 E.00529
G1 X113.381 Y127.229 E.00374
G1 X127.824 Y127.229 E.45285
G1 X127.873 Y127.254 E.00172
M204 S1000
