; generated by PrusaSlicer 2.9.0 on 2025-02-19 at 18:48:37 UTC


;
;
; 

; external perimeters extrusion width = 0.45mm
; perimeters extrusion width = 0.45mm
; infill extrusion width = 0.45mm
; solid infill extrusion width = 0.45mm
; top infill extrusion width = 0.40mm
; first layer extrusion width = 0.42mm

M73 P0 R66
M73 Q0 S66
M201 X1000 Y1000 Z200 E5000 ; sets maximum accelerations, mm/sec^2
M203 X200 Y200 Z12 E120 ; sets maximum feedrates, mm / sec
M204 S1250 T1250 ; sets acceleration (S) and retract acceleration (R), mm/sec^2
M205 X8.00 Y8.00 Z0.40 E4.50 ; sets the jerk limits, mm/sec
M205 S0 T0 ; sets the minimum extruding and travel feed rate, mm/sec

; printing object openjscad.stl id:0 copy 0
; stop printing object openjscad.stl id:0 copy 0

;TYPE:Custom
M862.3 P "MK3S" ; printer model check
M862.1 P0.4 ; nozzle diameter check
M115 U3.14.1 ; tell printer latest fw version
G90 ; use absolute coordinates
M83 ; extruder relative mode
M104 S215 ; set extruder temp
M140 S60 ; set bed temp
M190 S60 ; wait for bed temp
M109 S215 ; wait for extruder temp
G28 W ; home all without mesh bed level
G80 X49.2256 Y40.7398 W151.547 H128.528 ; mesh bed levelling

G1 Z0.2 F720
G1 Y-3 F1000 ; go outside print area
G92 E0
G1 X60 E9 F1000 ; intro line
G1 X100 E12.5 F1000 ; intro line

G92 E0
M221 S95

; Don't change E values below. Excessive value can damage the printer.
M907 E430 ; set extruder motor current
G21 ; set units to millimeters
G90 ; use absolute coordinates
M83 ; use relative distances for extrusion

M900 K0.05 ; Filament gcode LA 1.5
M900 K30 ; Filament gcode LA 1.0




M107
;LAYER_CHANGE
;Z:0.2
;HEIGHT:0.2
G1 E-.8 F2100
M73 P0 R65
G1 Z.6 F720
G1 X52.133 Y60.016 F10800
G1 Z.2 F720
G1 E.8 F2100
M204 S800
;TYPE:Skirt/Brim
;WIDTH:0.42
G1 F1200
G1 X53.178 Y59.326 E.03926
G1 X53.968 Y58.957 E.02734
G1 X55.447 Y58.546 E.04813
G1 X187.602 Y41.01 E4.17995
G1 X188.918 Y40.928 E.04134
G1 X190.127 Y41.062 E.03814
G1 X191.295 Y41.398 E.03811
G1 X192.449 Y41.966 E.04033
G1 X193.381 Y42.632 E.03592
G1 X193.993 Y43.217 E.02655
G1 X194.742 Y44.174 E.0381
G1 X195.32 Y45.244 E.03813
G1 X195.709 Y46.396 E.03812
G1 X195.914 Y47.782 E.04393
G1 X200.584 Y150.522 E3.22467
G1 X200.513 Y151.871 E.04236
G1 X200.252 Y153.014 E.03676
G1 X199.962 Y153.777 E.02559
G1 X199.194 Y155.098 E.04791
G1 X198.674 Y155.728 E.02561
G1 X197.811 Y156.52 E.03673
G1 X196.511 Y157.324 E.04793
G1 X195.416 Y157.744 E.03677
G1 X194.455 Y157.959 E.03088
G1 X121.618 Y168.989 E2.30979
G1 X120.225 Y169.075 E.04376
G1 X102.587 Y167.103 E.55647
G1 X101.6 Y166.918 E.03149
G1 X54.429 Y150.462 E1.56643
G1 X53.359 Y150.025 E.03624
G1 X52.374 Y149.422 E.03621
G1 X51.498 Y148.669 E.03622
G1 X50.965 Y148.067 E.02521
G1 X50.324 Y147.106 E.03622
G1 X49.846 Y146.054 E.03623
G1 X49.542 Y144.94 E.03621
G1 X49.414 Y143.615 E.04174
G1 X49.414 Y65.639 E2.44488
G1 X49.565 Y64.205 E.04521
M73 Q0 S65
G1 X49.921 Y63.004 E.03928
G1 X50.289 Y62.214 E.02733
G1 X50.98 Y61.17 E.03925
G1 X52.091 Y60.059 E.04926
M204 S1000
;WIPE_START
G1 F8640
G1 X52.133 Y60.016 E-.01388
G1 X53.178 Y59.326 E-.28915
G1 X53.968 Y58.957 E-.20133
G1 X55.201 Y58.614 E-.29564
;WIPE_END
G1 Z.6 F720
; printing object openjscad.stl id:0 copy 0
G1 X129.676 Y88.052 F10800
G1 Z.2 F720
G1 E.8 F2100
M204 S800
;TYPE:External perimeter
;WIDTH:0.49573
G1 F1200
G1 X129.706 Y88.074 E.0014
;WIDTH:0.533595
G1 X129.772 Y88.121 E.00331
;WIDTH:0.57146
G1 X129.838 Y88.168 E.00356
G1 X129.838 Y99.111 E.48093
G1 X129.819 Y99.368 E.01133
;WIDTH:0.533595
G1 X129.801 Y99.625 E.01051
;WIDTH:0.49573
G1 X129.782 Y99.882 E.0097
;WIDTH:0.457865
G1 X129.763 Y100.139 E.00889
G1 X129.782 Y100.396 E.00889
;WIDTH:0.49573
G1 X129.801 Y100.654 E.00974
;WIDTH:0.533595
G1 X129.819 Y100.911 E.01051
;WIDTH:0.57146
G1 X129.838 Y101.168 E.01133
G1 X129.838 Y105.111 E.17329
;WIDTH:0.575464
G1 X129.836 Y105.157 E.00204
G1 X129.771 Y105.192 E.00327
;WIDTH:0.536598
G1 X129.705 Y105.228 E.00309
;WIDTH:0.497732
G1 X129.64 Y105.264 E.00281
;WIDTH:0.458866
G1 X129.574 Y105.299 E.00258
;WIDTH:0.419999
G1 X111.631 Y105.299 E.56259
;WIDTH:0.458866
G1 X111.566 Y105.264 E.00255
;WIDTH:0.497732
G1 X111.5 Y105.228 E.00284
;WIDTH:0.536599
G1 X111.435 Y105.192 E.00305
;WIDTH:0.575465
G1 X111.369 Y105.157 E.00331
G1 X111.367 Y105.111 E.00204
;WIDTH:0.57146
G1 X111.367 Y102.168 E.12934
G1 X111.386 Y101.911 E.01133
;WIDTH:0.533595
G1 X111.405 Y101.654 E.01051
;WIDTH:0.49573
G1 X111.424 Y101.396 E.00974
;WIDTH:0.457865
G1 X111.443 Y101.139 E.00889
;WIDTH:0.458866
G1 X111.423 Y100.905 E.00812
;WIDTH:0.497732
G1 X111.404 Y100.671 E.00888
;WIDTH:0.536598
G1 X111.384 Y100.437 E.00964
;WIDTH:0.575464
G1 X111.367 Y100.111 E.01446
;WIDTH:0.57146
G1 X111.367 Y88.168 E.52487
G1 X111.433 Y88.121 E.00356
;WIDTH:0.533595
G1 X111.499 Y88.074 E.00331
;WIDTH:0.49573
G1 X111.565 Y88.026 E.00307
;WIDTH:0.457865
G1 X111.631 Y87.979 E.0028
;WIDTH:0.419999
G1 X129.574 Y87.979 E.56259
;WIDTH:0.457865
G1 X129.627 Y88.017 E.00225
M204 S1000
;WIPE_START
G1 F8640
G1 X129.676 Y88.052 E-.0139
G1 X129.706 Y88.074 E-.00859
G1 X129.772 Y88.121 E-.01871
G1 X129.838 Y88.168 E-.01871
G1 X129.838 Y91.373 E-.74009
;WIPE_END
G1 Z.6 F720
G1 X148.676 Y82.052 F10800
G1 Z.2 F720
G1 E.8 F2100
M204 S800
;WIDTH:0.49573
G1 F1200
G1 X148.706 Y82.074 E.0014
;WIDTH:0.533595
G1 X148.772 Y82.121 E.00331
;WIDTH:0.57146
G1 X148.838 Y82.168 E.00356
G1 X148.838 Y97.111 E.65672
G1 X148.819 Y97.368 E.01133
;WIDTH:0.533595
G1 X148.801 Y97.625 E.01051
;WIDTH:0.49573
G1 X148.782 Y97.882 E.0097
;WIDTH:0.457865
G1 X148.763 Y98.139 E.00889
;WIDTH:0.419999
G1 X148.763 Y99.111 E.03048
G1 X148.574 Y99.299 E.00836
G1 X130.631 Y99.299 E.56259
;WIDTH:0.458866
G1 X130.566 Y99.264 E.00255
;WIDTH:0.497732
G1 X130.5 Y99.228 E.00284
;WIDTH:0.536599
G1 X130.435 Y99.192 E.00305
;WIDTH:0.575465
G1 X130.369 Y99.157 E.00331
G1 X130.367 Y99.111 E.00204
;WIDTH:0.57146
G1 X130.367 Y88.168 E.48093
G1 X130.386 Y87.911 E.01133
M73 Q1 S65
;WIDTH:0.533595
G1 X130.405 Y87.654 E.01051
;WIDTH:0.49573
G1 X130.424 Y87.396 E.00974
;WIDTH:0.457865
G1 X130.443 Y87.139 E.00889
;WIDTH:0.458866
G1 X130.423 Y86.905 E.00812
;WIDTH:0.497732
G1 X130.404 Y86.671 E.00888
;WIDTH:0.536598
G1 X130.384 Y86.437 E.00964
;WIDTH:0.575464
G1 X130.367 Y86.111 E.01446
;WIDTH:0.57146
G1 X130.367 Y82.168 E.17329
G1 X130.433 Y82.121 E.00356
M73 P1 R65
;WIDTH:0.533595
G1 X130.499 Y82.074 E.00331
;WIDTH:0.49573
G1 X130.565 Y82.026 E.00307
;WIDTH:0.457865
G1 X130.631 Y81.979 E.0028
;WIDTH:0.419999
G1 X148.574 Y81.979 E.56259
;WIDTH:0.457865
G1 X148.627 Y82.017 E.00225
M204 S1000
;WIPE_START
G1 F8640
G1 X148.676 Y82.052 E-.0139
G1 X148.706 Y82.074 E-.00859
G1 X148.772 Y82.121 E-.01871
G1 X148.838 Y82.168 E-.01871
G1 X148.838 Y85.373 E-.74009
;WIPE_END
G1 Z.6 F720
G1 X148.668 Y118.205 F10800
G1 Z.2 F720
G1 E.8 F2100
M204 S800
;WIDTH:0.419999
G1 F1200
G1 X148.574 Y118.299 E.00417
G1 X130.631 Y118.299 E.56259
;WIDTH:0.458866
G1 X130.566 Y118.264 E.00255
;WIDTH:0.497732
G1 X130.5 Y118.228 E.00284
;WIDTH:0.536599
G1 X130.435 Y118.192 E.00305
;WIDTH:0.575465
G1 X130.369 Y118.157 E.00331
G1 X130.367 Y118.111 E.00204
;WIDTH:0.57146
G1 X130.367 Y107.168 E.48093
G1 X130.386 Y106.911 E.01133
;WIDTH:0.533595
G1 X130.405 Y106.654 E.01051
;WIDTH:0.49573
G1 X130.424 Y106.396 E.00974
;WIDTH:0.457865
G1 X130.443 Y106.139 E.00889
;WIDTH:0.458866
G1 X130.423 Y105.905 E.00812
;WIDTH:0.497732
G1 X130.404 Y105.671 E.00888
;WIDTH:0.536598
G1 X130.384 Y105.437 E.00964
;WIDTH:0.575464
G1 X130.367 Y105.111 E.01446
;WIDTH:0.57146
G1 X130.367 Y101.168 E.17329
G1 X130.433 Y101.121 E.00356
;WIDTH:0.533595
G1 X130.499 Y101.074 E.00331
;WIDTH:0.49573
G1 X130.565 Y101.026 E.00307
;WIDTH:0.457865
G1 X130.631 Y100.979 E.0028
;WIDTH:0.419999
G1 X148.574 Y100.979 E.56259
;WIDTH:0.457865
G1 X148.64 Y101.026 E.0028
;WIDTH:0.49573
G1 X148.706 Y101.074 E.00307
;WIDTH:0.533595
G1 X148.772 Y101.121 E.00331
;WIDTH:0.57146
G1 X148.838 Y101.168 E.00356
G1 X148.838 Y116.111 E.65672
G1 X148.819 Y116.368 E.01133
;WIDTH:0.533595
G1 X148.801 Y116.625 E.01051
;WIDTH:0.49573
G1 X148.782 Y116.882 E.0097
;WIDTH:0.457865
G1 X148.763 Y117.139 E.00889
;WIDTH:0.419999
G1 X148.763 Y118.111 E.03048
G1 X148.711 Y118.163 E.00231
M204 S1000
;WIPE_START
G1 F8640
G1 X148.668 Y118.205 E-.01388
G1 X148.574 Y118.299 E-.0307
G1 X145.302 Y118.299 E-.75542
;WIPE_END
G1 Z.6 F720
G1 X148.676 Y120.052 F10800
G1 Z.2 F720
G1 E.8 F2100
M204 S800
;WIDTH:0.49573
G1 F1200
G1 X148.706 Y120.074 E.0014
;WIDTH:0.533595
G1 X148.772 Y120.121 E.00331
;WIDTH:0.57146
G1 X148.838 Y120.168 E.00356
G1 X148.838 Y135.111 E.65672
G1 X148.819 Y135.368 E.01133
;WIDTH:0.533595
G1 X148.801 Y135.625 E.01051
;WIDTH:0.49573
G1 X148.782 Y135.882 E.0097
;WIDTH:0.457865
G1 X148.763 Y136.139 E.00889
;WIDTH:0.419999
G1 X148.763 Y137.111 E.03048
G1 X148.574 Y137.299 E.00836
G1 X130.631 Y137.299 E.56259
;WIDTH:0.458866
G1 X130.566 Y137.264 E.00255
;WIDTH:0.497732
G1 X130.5 Y137.228 E.00284
;WIDTH:0.536599
G1 X130.435 Y137.192 E.00305
;WIDTH:0.575465
G1 X130.369 Y137.157 E.00331
G1 X130.367 Y137.111 E.00204
;WIDTH:0.57146
G1 X130.367 Y126.168 E.48093
G1 X130.386 Y125.911 E.01133
;WIDTH:0.533595
G1 X130.405 Y125.654 E.01051
;WIDTH:0.49573
G1 X130.424 Y125.396 E.00974
;WIDTH:0.457865
G1 X130.443 Y125.139 E.00889
;WIDTH:0.458866
G1 X130.423 Y124.905 E.00812
;WIDTH:0.497732
G1 X130.404 Y124.671 E.00888
;WIDTH:0.536598
G1 X130.384 Y124.437 E.00964
;WIDTH:0.575464
G1 X130.367 Y124.111 E.01446
;WIDTH:0.57146
G1 X130.367 Y120.168 E.17329
G1 X130.432 Y120.121 E.00353
;WIDTH:0.533595
G1 X130.497 Y120.074 E.00327
;WIDTH:0.49573
G1 X130.561 Y120.027 E.00299
;WIDTH:0.457865
G1 X130.626 Y119.979 E.00279
;WIDTH:0.419999
G1 X148.574 Y119.979 E.56275
;WIDTH:0.457865
G1 X148.627 Y120.017 E.00225
M204 S1000
;WIPE_START
G1 F8640
G1 X148.676 Y120.052 E-.0139
G1 X148.706 Y120.074 E-.00859
G1 X148.772 Y120.121 E-.01871
G1 X148.838 Y120.168 E-.01871
G1 X148.838 Y123.373 E-.74009
;WIPE_END
G1 Z.6 F720
G1 X111.529 Y107.052 F10800
G1 Z.2 F720
G1 E.8 F2100
M204 S800
;WIDTH:0.49573
G1 F1200
G1 X111.565 Y107.026 E.00167
;WIDTH:0.457865
G1 X111.631 Y106.979 E.0028
;WIDTH:0.419999
G1 X129.574 Y106.979 E.56259
;WIDTH:0.457865
G1 X129.64 Y107.026 E.0028
;WIDTH:0.49573
G1 X129.706 Y107.074 E.00307
;WIDTH:0.533595
G1 X129.772 Y107.121 E.00331
;WIDTH:0.57146
G1 X129.838 Y107.168 E.00356
G1 X129.838 Y118.111 E.48093
G1 X129.819 Y118.368 E.01133
;WIDTH:0.533595
G1 X129.801 Y118.625 E.01051
;WIDTH:0.49573
G1 X129.782 Y118.882 E.0097
;WIDTH:0.457865
G1 X129.763 Y119.139 E.00889
G1 X129.782 Y119.396 E.00889
;WIDTH:0.49573
G1 X129.801 Y119.654 E.00974
;WIDTH:0.533595
G1 X129.819 Y119.911 E.01051
;WIDTH:0.57146
G1 X129.838 Y120.168 E.01133
G1 X129.838 Y124.111 E.17329
;WIDTH:0.575464
G1 X129.836 Y124.157 E.00204
G1 X129.771 Y124.192 E.00327
;WIDTH:0.536598
G1 X129.705 Y124.228 E.00309
;WIDTH:0.497732
G1 X129.64 Y124.264 E.00281
;WIDTH:0.458866
G1 X129.574 Y124.299 E.00258
;WIDTH:0.419999
G1 X111.631 Y124.299 E.56259
;WIDTH:0.458866
G1 X111.566 Y124.264 E.00255
;WIDTH:0.497732
G1 X111.5 Y124.228 E.00284
;WIDTH:0.536599
G1 X111.435 Y124.192 E.00305
;WIDTH:0.575465
G1 X111.369 Y124.157 E.00331
G1 X111.367 Y124.111 E.00204
;WIDTH:0.57146
G1 X111.367 Y121.168 E.12934
G1 X111.386 Y120.911 E.01133
;WIDTH:0.533595
G1 X111.405 Y120.654 E.01051
;WIDTH:0.49573
G1 X111.424 Y120.396 E.00974
;WIDTH:0.457865
G1 X111.443 Y120.139 E.00889
;WIDTH:0.458866
G1 X111.423 Y119.905 E.00812
;WIDTH:0.497732
G1 X111.404 Y119.671 E.00888
;WIDTH:0.536598
G1 X111.384 Y119.437 E.00964
;WIDTH:0.575464
G1 X111.367 Y119.111 E.01446
;WIDTH:0.57146
G1 X111.367 Y107.168 E.52487
G1 X111.433 Y107.121 E.00356
;WIDTH:0.533595
G1 X111.48 Y107.087 E.00237
M204 S1000
;WIPE_START
G1 F8640
G1 X111.529 Y107.052 E-.0139
G1 X111.565 Y107.026 E-.01025
G1 X111.631 Y106.979 E-.01871
G1 X114.91 Y106.979 E-.75714
;WIPE_END
G1 Z.6 F720
G1 X110.677 Y138.243 F10800
G1 Z.2 F720
G1 E.8 F2100
M204 S800
;WIDTH:0.497732
G1 F1200
G1 X110.64 Y138.264 E.00161
;WIDTH:0.458866
G1 X110.574 Y138.299 E.00258
;WIDTH:0.419999
G1 X92.631 Y138.299 E.56259
;WIDTH:0.458866
G1 X92.566 Y138.264 E.00255
;WIDTH:0.497732
G1 X92.5 Y138.228 E.00284
;WIDTH:0.536599
G1 X92.435 Y138.192 E.00305
;WIDTH:0.575465
G1 X92.369 Y138.157 E.00331
G1 X92.367 Y138.111 E.00204
;WIDTH:0.57146
G1 X92.367 Y128.168 E.43698
G1 X92.386 Y127.911 E.01133
;WIDTH:0.533595
G1 X92.405 Y127.654 E.01051
;WIDTH:0.49573
G1 X92.424 Y127.396 E.00974
;WIDTH:0.457865
G1 X92.443 Y127.139 E.00889
;WIDTH:0.458865
G1 X92.423 Y126.905 E.00812
;WIDTH:0.497731
G1 X92.404 Y126.671 E.00888
;WIDTH:0.536597
G1 X92.384 Y126.437 E.00964
;WIDTH:0.575463
G1 X92.367 Y126.111 E.01446
;WIDTH:0.57146
G1 X92.367 Y121.168 E.21724
G1 X92.433 Y121.121 E.00356
;WIDTH:0.533595
G1 X92.499 Y121.074 E.00331
;WIDTH:0.49573
G1 X92.565 Y121.026 E.00307
;WIDTH:0.457865
G1 X92.631 Y120.979 E.0028
;WIDTH:0.419999
G1 X110.579 Y120.979 E.56275
;WIDTH:0.457865
G1 X110.644 Y121.027 E.00279
;WIDTH:0.49573
G1 X110.709 Y121.074 E.00302
;WIDTH:0.533595
G1 X110.774 Y121.121 E.00327
;WIDTH:0.57146
G1 X110.838 Y121.168 E.00349
G1 X110.838 Y124.111 E.12934
G1 X110.819 Y124.368 E.01133
;WIDTH:0.533595
G1 X110.801 Y124.625 E.01051
;WIDTH:0.49573
G1 X110.782 Y124.882 E.0097
;WIDTH:0.457865
G1 X110.763 Y125.139 E.00889
G1 X110.782 Y125.396 E.00889
;WIDTH:0.49573
G1 X110.801 Y125.654 E.00974
;WIDTH:0.533595
G1 X110.819 Y125.911 E.01051
;WIDTH:0.57146
G1 X110.838 Y126.168 E.01133
G1 X110.838 Y138.111 E.52487
;WIDTH:0.575464
G1 X110.836 Y138.157 E.00204
G1 X110.771 Y138.192 E.00327
;WIDTH:0.536598
G1 X110.73 Y138.215 E.00193
M204 S1000
;WIPE_START
G1 F8640
G1 X110.677 Y138.243 E-.01384
G1 X110.64 Y138.264 E-.00982
G1 X110.574 Y138.299 E-.01725
G1 X107.287 Y138.299 E-.75909
;WIPE_END
G1 Z.6 F720
G1 X110.677 Y119.243 F10800
G1 Z.2 F720
G1 E.8 F2100
M204 S800
;WIDTH:0.497732
G1 F1200
G1 X110.64 Y119.264 E.00161
;WIDTH:0.458866
G1 X110.574 Y119.299 E.00258
;WIDTH:0.419999
G1 X92.631 Y119.299 E.56259
;WIDTH:0.458866
G1 X92.566 Y119.264 E.00255
;WIDTH:0.497732
G1 X92.5 Y119.228 E.00284
;WIDTH:0.536599
G1 X92.435 Y119.192 E.00305
;WIDTH:0.575465
G1 X92.369 Y119.157 E.00331
G1 X92.367 Y119.111 E.00204
;WIDTH:0.57146
G1 X92.367 Y109.168 E.43698
G1 X92.386 Y108.911 E.01133
;WIDTH:0.533595
G1 X92.405 Y108.654 E.01051
;WIDTH:0.49573
G1 X92.424 Y108.396 E.00974
;WIDTH:0.457865
G1 X92.443 Y108.139 E.00889
;WIDTH:0.458865
G1 X92.423 Y107.905 E.00812
;WIDTH:0.497731
G1 X92.404 Y107.671 E.00888
;WIDTH:0.536597
G1 X92.384 Y107.437 E.00964
;WIDTH:0.575463
G1 X92.367 Y107.111 E.01446
;WIDTH:0.57146
G1 X92.367 Y102.168 E.21724
G1 X92.433 Y102.121 E.00356
;WIDTH:0.533595
G1 X92.499 Y102.074 E.00331
;WIDTH:0.49573
G1 X92.565 Y102.026 E.00307
;WIDTH:0.457865
G1 X92.631 Y101.979 E.0028
;WIDTH:0.419999
G1 X110.574 Y101.979 E.56259
;WIDTH:0.457865
G1 X110.64 Y102.026 E.0028
;WIDTH:0.49573
G1 X110.706 Y102.074 E.00307
;WIDTH:0.533595
G1 X110.772 Y102.121 E.00331
;WIDTH:0.57146
G1 X110.838 Y102.168 E.00356
G1 X110.838 Y105.111 E.12934
;WIDTH:0.575465
G1 X110.84 Y105.203 E.00407
G1 X110.821 Y105.437 E.0104
;WIDTH:0.536599
G1 X110.802 Y105.671 E.00964
;WIDTH:0.497732
G1 X110.782 Y105.905 E.00888
;WIDTH:0.458866
G1 X110.763 Y106.139 E.00812
;WIDTH:0.457865
G1 X110.782 Y106.396 E.00889
;WIDTH:0.49573
G1 X110.801 Y106.654 E.00974
;WIDTH:0.533595
G1 X110.819 Y106.911 E.01051
;WIDTH:0.57146
G1 X110.838 Y107.168 E.01133
G1 X110.838 Y119.111 E.52487
;WIDTH:0.575464
G1 X110.836 Y119.157 E.00204
G1 X110.771 Y119.192 E.00327
;WIDTH:0.536598
G1 X110.73 Y119.215 E.00193
M204 S1000
;WIPE_START
G1 F8640
G1 X110.677 Y119.243 E-.01384
G1 X110.64 Y119.264 E-.00982
G1 X110.574 Y119.299 E-.01725
G1 X107.287 Y119.299 E-.75909
;WIPE_END
G1 Z.6 F720
G1 X110.676 Y83.052 F10800
G1 Z.2 F720
G1 E.8 F2100
M204 S800
;WIDTH:0.49573
G1 F1200
G1 X110.706 Y83.074 E.0014
;WIDTH:0.533595
G1 X110.772 Y83.121 E.00331
;WIDTH:0.57146
G1 X110.838 Y83.168 E.00356
G1 X110.838 Y86.111 E.12934
G1 X110.819 Y86.368 E.01133
;WIDTH:0.533595
G1 X110.801 Y86.625 E.01051
;WIDTH:0.49573
G1 X110.782 Y86.882 E.0097
;WIDTH:0.457865
G1 X110.763 Y87.139 E.00889
